!!!!SEGMENT: pl-kk--kk-i-2--049_pekiel-bartlomiej--patrem-na-rotuly-wikaryjskie.krn
!!!cenid: 16xx:1726
!!!COM: Pękiel, Bartłomiej
!!!COM-rismID: pe30105642
!!!CDT: <1633-~1670
!!!CNT: Polish
!!!OTL: Patrem na Rotuły Wikaryjskie
!!!AGN: Sacred; Mass
!!!SMS-siglum: PL-Kk
!!!SMS-shelfmark: Kk.I.2
!!!SMS-shelfwork: 049 W
!!!SMS-variant:
!!!SMS-altvar:
!!!NIFC-rismSourceID: 300258016
!!!NIFC-rismChildID: 300258067
!!!NIFC-islandoraID: pl-kk:750
!!!URL-pdf-islandora: https://repozytorium.nifc.pl/islandora/object/pl-kk%3A750/datastream/PDF/view#page=84
!!!URL-scan: https://polish.musicsources.pl/pl/lokalizacje/galeria/rekopisy/5828 @EN{Scan on Polish Music Sources Website} @PL{Skany w portalu Dziedzictwo Muzyki Polskiej w otwartym dostępie}
!!!ONB-nifc: scany: C: 0084-0085; A: 0188-0189; T: 0287-0288; B: 0388-0389
!!!AIN: 1 alto 1 bass 1 soprn 1 tenor
!!!key:
**kern	**text	**kern	**text	**kern	**text	**kern	**text
*part4	*part4	*part3	*part3	*part2	*part2	*part1	*part1
*staff4	*staff4	*staff3	*staff3	*staff2	*staff2	*staff1	*staff1
*I"BASVS	*	*I"TENOR	*	*I"ALTVS	*	*I"DISCANTVS	*
*mI"Basso	*	*mI"Tenore	*	*mI"Alto	*	*mI"Soprano	*
*I'B	*	*I'T	*	*I'A	*	*I'S	*
*Ibass	*	*Itenor	*	*Ialto	*	*Isoprn	*
*ICvox	*	*ICvox	*	*ICvox	*	*ICvox	*
*clefF4	*	*clefC4	*	*clefC4	*	*clefC3	*
*	*	*mclefGv2	*	*mclefGv2	*	*mclefGv2	*
*k[b-]	*	*k[b-]	*	*k[b-]	*	*k[b-]	*
*F:	*	*F:	*	*F:	*	*F:	*
*M2/2	*	*M2/2	*	*M2/2	*	*M2/2	*
*met(C|)	*	*met(C|)	*	*met(C|)	*	*met(C|)	*
*mmet(c|)	*	*mmet(c|)	*	*mmet(c|)	*	*mmet(c|)	*
=1-	=1-	=1-	=1-	=1-	=1-	=1-	=1-
*xywh-pl-kk--i-2--0388:905,535,6832,1201	*	*xywh-pl-kk--i-2--0287:1125,586,6763,998	*	*xywh-pl-kk--i-2--0188:1184,1386,6683,1728	*	*xywh-pl-kk--i-2--0084:1279,1937,6584,1241	*
!LO:MO:mod=*null:null	!	!LO:MO:mod=*null:null	!	!LO:MO:mod=*null:null	!	!LO:MO:mod=*null:null	!
*all\right	*	*all\right	*	*all\right	*	*all\right	*
!	!	!	!	!	!	!LO:MO:mod=*null:null	!
*	*	*	*	*	*	*2\right	*
*xywh-pl-kk--i-2--0388:974,1538,6793,1032	*	*	*	*	*	*	*
!LO:TX:t=P:problem:kreska pseudotaktowa	!	!	!	!LO:TX:t=Patrem na Rotuły Stare Wikariow kathedralnych.\nJe-o Mci P. B. Pekela kapellae Magiſtra JKM. y Zamku krak.\n1661 Vczynione.:mod=	!	!LO:TX:t=Patrem na Rotuły Stare Wikaryiskie\nkathedralne.:mod=	!
!LO:TX:t=Patrem na Rotuły Wikaryiskie Boże. Narodzenie:mod=	!	!LO:TX:t=A.D 1661. Patrem na Rotuły Wikaryiow kathedralnych krak.:mod=	!	!LO:TX:t=Tenor 1mus.:mod=	!	!LO:TX:a:t=	!
1r	.	2F/	Pa-	1r	.	2f\	Pa-
.	.	4F/	-trem	.	.	4f\	-trem
.	.	4F/	om-	.	.	4f\	om-
=2-	=2-	=2-	=2-	=2-	=2-	=2-	=2-
!	!	!	!	!LO:MO:mod=*null:null	!	!	!
*	*	*	*	*2\right	*	*	*
!	!	!	!	!	!LO:MO:mod=Pa-	!	!
2C/	Pa-	(2G/	-ni-	2c\	PA-	2.e\	-ni-
4C/	-trem	2A/)	.	4c\	-trem	.	.
!LO:TX:t=P:problem:kreska pseudotaktowa	!	!	!	!	!	!	!
4C/	om-	.	.	4c\	om-	4e\	-po-
=3-	=3-	=3-	=3-	=3-	=3-	=3-	=3-
!LO:MO:mod=*null:null	!	!LO:MO:mod=*null:null	!	!	!	!	!
*2\right	*	*2\right	*	*	*	*	*
2D\	-ni-	2B-\	-po-	2.B-\	-ni-	(>2d\	-ten-
!LO:TX:t=P:problem:kreska pseudotaktowa	!	!	!LO:MO:mod=-ten-	!	!	!	!
2E\	-po-	2G/	-te(n)-	.	.	2g\)	.
.	.	.	.	4B-\	-po-	.	.
=4-	=4-	=4-	=4-	=4-	=4-	=4-	=4-
!	!	!	!LO:MO:mod=-tem	!	!	!	!LO:MO:mod=-tem
(2F\	-ten-	2F/,<	-te(m)	(2A\	-ten-	4c/,<	-te(m)
!	!	!	!	!	!	!	!LO:MO:mod=fac-
.	.	.	.	.	.	4c/	Fac-
!	!	!	!	!LO:MO:mod=!null:null	!	!	!
!	!	!	!LO:MO:mod=fac-	!LO:N:acc=#	!	!	!
2D/)	.	2F/	Fac-	2Bn\)	.	1f\	-to-
=5-	=5-	=5-	=5-	=5-	=5-	=5-	=5-
!LO:TX:t=P:problem:kreska pseudotaktowa	!	!	!	!	!	!	!
1C	.	2.G/	-to-	2c\	-tem	.	.
!	!	!	!	!	!LO:MO:mod=fac-	!	!LO:MO:mod=-rem
.	.	.	.	2G/	Fac-	4e\	-re(m)
!	!	!	!LO:MO:mod=-rem	!	!	!	!
.	.	4G/	-re(m)	.	.	4e\	fac-
=6-	=6-	=6-	=6-	=6-	=6-	=6-	=6-
!	!	!	!LO:MO:mod=cae-	!	!	!	!
4BB-/,<	-tem	2D/	Cae-	8B-y\L	-to-	2f\	-to-
.	.	.	.	8c\	.	.	.
!	!LO:MO:mod=fac-	!	!	!	!	!	!
4BB-/	Fac-	.	.	8d\	.	.	.
.	.	.	.	8e-\J	.	.	.
!	!	!	!	!	!	!	!LO:MO:mod=-rem
4AA/	-to-	4E/	-li	8c\L	.	2g\	-re(m)
.	.	.	.	8d\	.	.	.
!LO:TX:t=P:problem:kreska pseudotaktowa	!LO:MO:mod=-rem	!	!	!	!	!	!
4GG/	-re(m)	4E/	et	8B-\	.	.	.
.	.	.	.	8c\J	.	.	.
=7-	=7-	=7-	=7-	=7-	=7-	=7-	=7-
!	!LO:MO:mod=cae-	!	!	!	!	!	!LO:MO:mod=cae-
4FF/	ca(e)-	1F	ter-	4A/	.	4.a\	ca(e)-
8F\L	.	.	.	4A/,<	-rem	.	.
8E\J	.	.	.	.	.	8g\	.
!	!	!	!	!	!LO:MO:mod=cae-	!	!
4D/	.	.	.	4B-\	Cae-	4f\	.
8AA/	-li	.	.	8c\	-li	8f\	-li
!LO:TX:t=P:problem:kreska pseudotaktowa	!	!	!	!	!	!	!
8AA/	et	.	.	8c\	et	8f\	et
=8-	=8-	=8-	=8-	=8-	=8-	=8-	=8-
2BB-/	ter-	1F,<	-rae	2B-\	ter-	2d\	ter-
!LO:TX:t=P:problem:kreska pseudotaktowa	!LO:MO:mod=-rae	!	!	!	!LO:MO:mod=-rae	!	!LO:MO:mod=-rae
2FF/,<	-rae.	.	.	2A/,<	-rae.	2c/,<	-rae.
=9-	=9-	=9-	=9-	=9-	=9-	=9-	=9-
!	!LO:MO:mod=vi-	!	!LO:MO:mod=vi-	!	!LO:MO:mod=vi-	!	!LO:MO:mod=vi-
4.F\	Vi-	4.c\	Vi-	4.A/	Vi-	4.f\	Vi-
8F\	-ſi-	8c\	-ſi-	8A/	-ſi-	8f\	-ſi-
4.E\	-bi-	4.c\	-bi-	4.G/	-bi-	4.g\	-bi-
!LO:TX:t=P:problem:kreska pseudotaktowa	!	!	!	!	!	!LO:SIC:v:t=custos f	!
8E\	-li-	8c\	-li-	8G/	-li-	8g\	-li-
*	*	*	*	*	*	*xywh-pl-kk--i-2--0084:1904,2920,5958,1003	*
!	!	!	!	!	!	!LO:LB:g=original	!
=10-	=10-	=10-	=10-	=10-	=10-	=10-	=10-
(2D\	-um	(2d\	-um	(2A/	-um	(2f\	-um
!LO:SIC:v:t=custos F	!	!LO:SIC:v:t=custos A	!	!LO:SIC:v:t=custos A	!	!	!
2E\)	.	2c\)	.	2G/)	.	2g\)	.
*	*	*xywh-pl-kk--i-2--0287:1190,1426,6581,900	*	*xywh-pl-kk--i-2--0188:1860,2866,5938,1003	*	*	*
!LO:LB:g=original	!	!LO:LB:g=original	!	!LO:LB:g=original	!	!	!
=11-	=11-	=11-	=11-	=11-	=11-	=11-	=11-
!LO:SIC:s=(2F	!	!	!	!	!	!	!
2F\	om-	(2A\	om-	(2A/	om-	(2f\	om-
!	!	!LO:MO:mod=!null:null	!	!	!	!	!
!LO:SIC:s=4.G)	!	!LO:N:acc=#	!	!	!	!	!
4.G\	.	4.Bn\)	.	4.G/)	.	4.d\)	.
8G\	-ni-	8B\	-ni-	8G/	-ni-	8d\	-ni-
=12-	=12-	=12-	=12-	=12-	=12-	=12-	=12-
!LO:TX:t=P:problem:kreska pseudotaktowa	!	!	!	!	!	!	!
1C	-um	1c	-um	2G/,<	-um	1e	-um
.	.	.	.	2c\	et	.	.
=13-	=13-	=13-	=13-	=13-	=13-	=13-	=13-
2.F\	et	2c\	et	2A\	in-	2r	.
.	.	2A/	in-	4.c\	-vi-	4.a\	et
4F\	in-	.	.	.	.	.	.
.	.	.	.	8c\	-ſi-	8a\	in-
=14-	=14-	=14-	=14-	=14-	=14-	=14-	=14-
!	!LO:MO:mod=-vi-	!	!LO:MO:mod=-vi-	!	!	!	!LO:MO:mod=-vi-
2D\	-ui-	2B-y\	-ui-	(2d\	-bi-	2.f\	-ui-
!LO:TX:t=P:problem:kreska pseudotaktowa	!	!	!	!	!	!	!
2F\	-ſi-	2A/	-ſi-	2.c\	.	.	.
.	.	.	.	.	.	4f\	-ſi-
=15-	=15-	=15-	=15-	=15-	=15-	=15-	=15-
(4C/	-bi-	2.G/	-bi-	.	.	8e\L	-bi-
.	.	.	.	.	.	8c\J	.
!LO:SIC:s=4BB-	!	!	!	!LO:SIC:s=4d	!	!	!
4BB-/)	.	.	.	4d\)	.	2f\	.
!LO:SIC:s=4.C)	!	!	!	!LO:SIC:s=4.c)	!	!	!
4.C/	.	.	.	4.c\	.	.	.
.	.	4G/	-li-	.	.	4e\	-li-
!LO:TX:t=P:problem:kreska pseudotaktowa	!	!	!	!	!	!	!
8C/	-li-	.	.	8c\	-li-	.	.
=16-	=16-	=16-	=16-	=16-	=16-	=16-	=16-
!	!LO:MO:mod=-um.	!	!	!	!	!	!
2FF/,<	-um	1A,<	-um.	4c\,<	-um.	2f\,<	-um.
.	.	.	.	2c\	Et	.	.
4.F\	Et	.	.	.	.	4.a\	Et
.	.	.	.	4c\	in	.	.
!LO:TX:t=P:problem:kreska pseudotaktowa	!	!	!	!	!	!	!
8E\	in	.	.	.	.	8g\	in
=17-	=17-	=17-	=17-	=17-	=17-	=17-	=17-
!	!LO:MO:mod=u-	!	!	!	!LO:MO:mod=u-	!	!LO:MO:mod=u-
2D/	U-	2F/	Et	2d\	V-	2f\	V-
!LO:TX:t=P:problem:kreska pseudotaktowa	!	!	!	!	!LO:MO:mod=-num	!	!
2C#X/	-num	2A/	in	2e\	-nu(m)	2e\	-num
=18-	=18-	=18-	=18-	=18-	=18-	=18-	=18-
!	!	!	!LO:MO:mod=u-	!	!LO:MO:mod=Do-	!	!
8D\L	Do-	2F/	V-	2.A/	D(o-	4.d\	Do-
!LO:SIC:s=8C#	!	!	!	!	!	!	!
8C#y\	.	.	.	.	.	.	.
8D\	.	.	.	.	.	.	.
8E\J	.	.	.	.	.	8d\	-mi-
!LO:TX:t=P:problem:kreska pseudotaktowa:między nutą a kropką	!	!	!	!	!	!	!LO:MO:mod=-num
(2.F\	.	2A/	-num	.	.	2c\	-nu(m)
!	!	!	!	!	!LO:MO:mod=-mi-	!	!
.	.	.	.	4A/	-mi)-	.	.
=19-	=19-	=19-	=19-	=19-	=19-	=19-	=19-
!	!	!	!	!	!LO:MO:mod=-num	!	!
.	.	2.c\	Do-	2G/	-n(u)m	8c\L	Je-
.	.	.	.	.	.	8d\	.
8E\L	.	.	.	.	.	8e\	.
8D\J)	.	.	.	.	.	8f\J	.
4.E\	.	.	.	1c\	Je-	2g\	.
.	.	4c\	-mi-	.	.	.	.
!LO:TX:t=P:problem:kreska pseudotaktowa	!	!	!	!	!	!	!
8E\	-mi-	.	.	.	.	.	.
=20-	=20-	=20-	=20-	=20-	=20-	=20-	=20-
2F\	-num	2A\	-num	.	.	1f	-ſum
4.AA/	Je-	2c\	Je-	2A/	-ſum	.	.
!LO:TX:t=P:problem:kreska pseudotaktowa	!LO:MO:mod=-sum	!	!	!	!	!	!
8AA/	-ſu(m)	.	.	.	.	.	.
=21-	=21-	=21-	=21-	=21-	=21-	=21-	=21-
!	!	!	!	!	!LO:MO:mod=Chris-	!	!
(2BB-/	Chri-	2B-\	-ſum	(2d\	Chr(is-	8d\L	Chriſ-
.	.	.	.	.	.	8e\J	.
.	.	.	.	.	.	2f\	.
!LO:SIC:v:t=custos FF	!	!	!	!	!	!	!
2Cny/)	.	2G/	Chriſ-	2c\)	.	.	.
.	.	.	.	.	.	4e\	.
*xywh-pl-kk--i-2--0388:1550,2293,6127,1072	*	*	*	*	*	*	*
!LO:LB:g=original	!	!	!	!	!	!	!
=22-	=22-	=22-	=22-	=22-	=22-	=22-	=22-
!LO:TX:t=P:problem:kreska pseudotaktowa	!	!	!	!	!LO:MO:mod=-tum	!LO:SIC:v:t=custos a	!LO:MO:mod=-tum
1FF	-ſtum	1A,<	-tum	4c\	-t)um	1f	-tum.
.	.	.	.	2c\	Fi-	.	.
.	.	.	.	4c\	-li-	.	.
*	*	*	*	*	*	*xywh-pl-kk--i-2--0084:2043,3754,5859,1012	*
!	!	!	!	!	!	!LO:LB:g=original	!
=23-	=23-	=23-	=23-	=23-	=23-	=23-	=23-
!	!	!	!	!LO:SIC:v:t=custos F	!LO:MO:mod=-um	!	!
1r	.	4.c\	Fi-	2A/	-u(m)	1r	.
.	.	8c\	-li-	.	.	.	.
*	*	*	*	*xywh-pl-kk--i-2--0188:1760,3631,5988,1112	*	*	*
!	!	!	!	!LO:LB:g=original	!	!	!
.	.	2A/	-um	4.F/	De-	.	.
.	.	.	.	8G/	.	.	.
=24-	=24-	=24-	=24-	=24-	=24-	=24-	=24-
4.F\	Fi-	(2F/	De-	4.A/	.	4.a\	Fi-
8F\	-li-	.	.	8B-\	.	8a\	-li-
!LO:TX:t=P:problem:kreska pseudotaktowa	!	!LO:SIC:v:t=custos A	!	!	!	!	!
2E\	-um	2G/)	.	2c\	.	2g\	-um
*	*	*xywh-pl-kk--i-2--0287:1773,2099,5997,1029	*	*	*	*	*
!	!	!LO:LB:g=original	!	!	!	!	!
=25-	=25-	=25-	=25-	=25-	=25-	=25-	=25-
4.D/	De-	1A	.	2d\	-i	2f\	De-
16C/LL	.	.	.	.	.	.	.
16BB-/JJ	.	.	.	.	.	.	.
!	!	!	!	!	!LO:MO:mod=u-	!	!
4AA/	.	.	.	1c\	V-	2f\	-i
!LO:TX:t=P:problem:kreska pseudotaktowa	!	!	!	!	!	!	!
4BB-/	.	.	.	.	.	.	.
=26-	=26-	=26-	=26-	=26-	=26-	=26-	=26-
!	!	!	!	!	!	!	!LO:MO:mod=u-
2C/	.	2G/	-i	.	.	4.e\	V-
.	.	.	.	.	.	8f\	-ni-
!LO:TX:t=P:problem:kreska pseudotaktowa	!	!	!LO:MO:mod=u-	!	!	!	!
2GG/	-i	2B-/	V-	2d\	-ni-	2.g\	-ge-
=27-	=27-	=27-	=27-	=27-	=27-	=27-	=27-
!	!LO:MO:mod=u-	!	!	!	!	!	!
4.AA/	U-	2A/	-ni-	2.c\	-ge-	.	.
.	.	.	.	.	.	2f\	.
8AA/	-ni-	.	.	.	.	.	.
4.C/	-ge-	4.G/	-ge-	.	.	.	.
.	.	.	.	4c\	-ni-	4e\	-ni-
8C/	-ni-	8G/	-ni-	.	.	.	.
=28-	=28-	=28-	=28-	=28-	=28-	=28-	=28-
!LO:TX:t=P:problem:kreska pseudotaktowa	!LO:MO:mod=-tum.	!LO:TX:t=P:problem:kreska pseudotaktowa	!	!LO:TX:t=P:problem:kreska pseudotaktowa	!LO:MO:mod=-tum.	!	!LO:MO:mod=-tum.
1FF	-tum	1A	-tum.	1c	-tum	1f,<	-tum
=29-	=29-	=29-	=29-	=29-	=29-	=29-	=29-
!	!LO:MO:mod=Et	!	!	!	!LO:MO:mod=Et	!	!LO:MO:mod=Et
4F\	et	4A\	Et	4c\	et	4f\	et
4F\	ex	4A\	ex	4c\	ex	4f\	ex
!	!	!	!	!	!LO:MO:mod=Pa-	!	!
4B-\	Pa-	4B-\	Pa-	4d\	P(a-	4f\	Pa-
!LO:TX:t=P:problem:kreska pseudotaktowa	!	!	!	!	!LO:MO:mod=-tre	!	!
4G\	-tre	4B-\	-tre	4e\	-t)re	4g\	-tre
=30-	=30-	=30-	=30-	=30-	=30-	=30-	=30-
4F\	na-	4c\	na-	4f\	na-	4a\	na-
!	!LO:MO:mod=-tum	!	!	!	!LO:MO:mod=-tum	!	!LO:MO:mod=-tum
4F\	-tu(m)	4c\	-tum	4f\	-tu(m)	4a\	-tu(m)
4F\	an-	4c\	an-	4f\	an-	4a\	an-
!LO:TX:t=P:problem:kreska pseudotaktowa	!	!	!	!	!	!	!
4F\	-te	4c\	-te	4f\	-te	4a\	-te
=31-	=31-	=31-	=31-	=31-	=31-	=31-	=31-
4C/	om-	4c\	om-	4e-X\	om-	4g\	om-
8C/	-ni-	8c\	-ni-	8e-\	-ni-	8g\	-ni-
8C/	-a	8c\	-a	8e-\	-a	8g\	-a
4.G\	ſae-	4.c\	ſae-	4.d\	ſae-	4.g\	ſae-
!LO:SIC:v:t=custos C	!	!	!	!	!	!	!
!LO:TX:t=P:problem:kreska pseudotaktowa	!	!LO:SIC:s=8Bi	!	!	!	!	!
8GG/	-cu-	8B-\	-cu-	8d\	-cu-	8g\	-cu-
*xywh-pl-kk--i-2--0388:1639,3127,6008,1003	*	*	*	*	*	*	*
!LO:LB:g=original	!	!	!	!	!	!	!
=32-	=32-	=32-	=32-	=32-	=32-	=32-	=32-
!	!	!	!LO:MO:mod=-la	!	!	!	!
4C/	-la	1c,<	-la.	2c\,<	-la	4g\	-la
4C/	De-	.	.	.	.	4e\	De-
!	!	!	!	!	!	!	!LO:MO:mod=-um
4AA/	-um	.	.	2c\	De-	4f\	-u(m)
!LO:TX:t=P:problem:kreska pseudotaktowa	!	!	!	!	!	!	!
4C/	de	.	.	.	.	4e\	de
=33-	=33-	=33-	=33-	=33-	=33-	=33-	=33-
2FF/	De-	2c\	De-	4A\	-um	2f\	De-
!	!	!	!	!LO:SIC:v:t=custos F	!	!	!
.	.	.	.	4c\	de	.	.
*	*	*	*	*xywh-pl-kk--i-2--0188:8176,522,6395,1042	*	*	*
!	!LO:MO:mod=-o	!	!	!LO:PB:g=original	!	!LO:SIC:v:t=custos f	!
2FF/	-o,	4A\	-um	8F/L	De-	2f\	-o
.	.	.	.	8G/	.	.	.
.	.	4c\	de	8A/	.	.	.
.	.	.	.	8B-/J	.	.	.
*	*	*	*	*	*	*xywh-pl-kk--i-2--0084:8012,556,6276,973	*
!	!	!	!	!	!	!LO:PB:g=original	!
=34-	=34-	=34-	=34-	=34-	=34-	=34-	=34-
4r	.	2A/	De-	2c\	.	2r	.
!	!LO:MO:mod=lu-	!	!	!	!	!	!
4F\	Lu-	.	.	.	.	.	.
!	!	!LO:SIC:v:t=custos c	!	!	!	!	!
4D\	-men	2F/	-o,	4d\,<	-o	2f\	lu-
!LO:TX:t=P:problem:kreska pseudotaktowa	!	!	!	!	!	!	!
4F\	de	.	.	4c\	lu-	.	.
!	!	!LO:LB:g=original	!	!	!	!	!
=35-	=35-	=35-	=35-	=35-	=35-	=35-	=35-
*	*	*xywh-pl-kk--i-2--0287:1833,2911,5918,1088	*	*	*	*	*
!	!	!	!LO:MO:mod=lu-	!	!	!	!
8E\L	lu-	2c\	Lu-	4G/	-men	4g\	-men
8D\	.	.	.	.	.	.	.
8C\	.	.	.	4c\	de	4g\	de
16D\L	.	.	.	.	.	.	.
16E\JJ	.	.	.	.	.	.	.
4.F\	.	4A\	-men	8c\L	lu-	4.f\	lu-
.	.	.	.	8B-\	.	.	.
.	.	4c\	de	8A\	.	.	.
!LO:TX:t=P:problem:kreska pseudotaktowa	!	!	!	!	!	!	!
8F\	-mi-	.	.	8G\J	.	8f\	-mi-
=36-	=36-	=36-	=36-	=36-	=36-	=36-	=36-
4FF/,<	-ne	4.A/	lu-	4.F/	.	4f\	-ne
8F\	De-	.	.	.	.	8c/	De-
8F\	-um	8A/	-mi-	8F/	-mi-	8c/	-um
!	!LO:MO:mod=ve-	!	!	!	!	!	!LO:MO:mod=ve-
8D\L	Ve-	2F/,<	-ne	4A/,<	-ne	2d\	Ve-
8C\	.	.	.	.	.	.	.
8BB-\	.	.	.	4.B-\	De-	.	.
!LO:TX:t=P:problem:kreska pseudotaktowa	!	!	!	!	!	!	!
8AA\J	.	.	.	.	.	.	.
=37-	=37-	=37-	=37-	=37-	=37-	=37-	=37-
4GG/	.	4G/	De-	.	.	4d\	-rum
.	.	.	.	8B-\	-um	.	.
!	!	!	!	!	!LO:MO:mod=ve-	!	!
8C/L	.	4G/	-um	4c\	Ve-	4e\	de
8D/	.	.	.	.	.	.	.
!	!	!	!LO:MO:mod=ve-	!	!LO:MO:mod=-rum	!	!
8E/	.	4G/	Ve-	4c\,<	-ru(m)	2.g\	De-
8C/J	.	.	.	.	.	.	.
!LO:TX:t=P:problem:kreska pseudotaktowa	!	!	!LO:MO:mod=-rum	!	!	!	!
4G\	.	4B-/	-ru(m)	4d\	de	.	.
=38-	=38-	=38-	=38-	=38-	=38-	=38-	=38-
8D\	-rum	4A/	de	4d\	De-	.	.
8D\	de	.	.	.	.	.	.
8F\	De-	4A/	De-	4c\	-o	4f\	-o
8AA/	-o	.	.	.	.	.	.
!	!LO:MO:mod=ve-	!	!	!	!LO:MO:mod=ve-	!	!LO:MO:mod=ve-
(4BB-/	Ve-	4G/	-o	4d\	Ve-	(4.f\	Ve-
!LO:TX:t=P:problem:kreska pseudotaktowa	!	!	!LO:MO:mod=ve-	!	!LO:MO:mod=-ro.	!	!
4C/)	.	4G/	Ve-	4c\,<	-ro,	.	.
.	.	.	.	.	.	8e\)	.
=39-	=39-	=39-	=39-	=39-	=39-	=39-	=39-
!LO:SIC:v:t=custos F	!	!	!	!	!	!	!
!LO:TX:t=P:problem:kreska pseudotaktowa	!	!	!LO:MO:mod=-ro.	!	!LO:MO:mod=Ge-	!	!LO:MO:mod=-ro.
1FF,<	-ro.	1A,<	-ro	4.c\	ge-	1f,<	-ro
.	.	.	.	8B-\	-ni-	.	.
!	!	!	!	!LO:TX:t=1/4:mod=	!	!	!
!	!	!	!	!LO:MO:mod=!null:null	!	!	!
!	!	!	!	!LO:N:vis=16	!	!	!
.	.	.	.	4A/	-tum	.	.
!	!	!	!	!LO:TX:t=1/4:mod=	!	!	!
!	!	!	!	!LO:MO:mod=!null:null	!	!	!
!	!	!	!	!LO:N:vis=16	!LO:MO:mod=non	!	!
.	.	.	.	4G/	n[on]	.	.
*xywh-pl-kk--i-2--0388:1649,3931,6147,1012	*	*	*	*	*	*	*
!LO:LB:g=original	!	!	!	!	!	!	!
=40-	=40-	=40-	=40-	=40-	=40-	=40-	=40-
!	!LO:MO:mod=Ge-	!	!LO:MO:mod=Ge-	!	!	!	!
4.F\	ge-	4.c\	ge-	2A\	fac-	4.f\	Ge-
8F\	-ni-	8c\	-ni-	.	.	8f\	-ni-
4E\	-tum	4c\	-tum	4G/	-tum	4.g\	-tum
!LO:TX:t=P:problem:kreska pseudotaktowa	!LO:MO:mod=non	!	!	!	!	!	!
4E\	n(on)	4c\	non	4c\	non	.	.
.	.	.	.	.	.	8g\	non
=41-	=41-	=41-	=41-	=41-	=41-	=41-	=41-
(2F\	fac-	(2A\	fac-	(2c\	fac-	8f\L	fac-
.	.	.	.	.	.	8g\	.
.	.	.	.	.	.	8f\	.
.	.	.	.	.	.	8e\J	.
!	!	!LO:MO:mod=!null:null	!	!	!	!	!
!LO:TX:t=P:problem:kreska pseudotaktowa	!	!LO:N:acc=#	!	!	!	!	!
2G\)	.	2Bn\)	.	2G/)	.	2d\	.
=42-	=42-	=42-	=42-	=42-	=42-	=42-	=42-
!	!LO:MO:mod=-tum	!	!	!LO:SIC:v:t=custos F	!LO:MO:mod=-tum	!	!
4C/	-tu(m)	1c,<	-tum	1G,<	-túm	4e\,<	-tum
4.C/	con-	.	.	.	.	4.e\	con-
8C/	-ſub-	.	.	.	.	8e\	-ſub-
8.D/	-ſtan-	.	.	.	.	8f\	-ſtan-
!	!	!	!	!	!	!LO:SIC:v:t=custos a	!LO:MO:mod=-ti-
.	.	.	.	.	.	8g\	-ci-
!LO:TX:t=P:problem:kreska pseudotaktowa	!	!	!	!	!	!	!
16E/	-ti-	.	.	.	.	.	.
!	!	!	!	!LO:LB:g=original	!	!LO:LB:g=original	!
=43-	=43-	=43-	=43-	=43-	=43-	=43-	=43-
*	*	*	*	*xywh-pl-kk--i-2--0188:8285,1376,5839,973	*	*xywh-pl-kk--i-2--0084:7992,1331,6385,983	*
!	!	!	!	!	!LO:MO:mod=con-	!	!
4.F\	-a-	4c\	con-	4.F/	Con-	4.a\	-a-
.	.	4c\	-ſub-	.	.	.	.
16E\LL	.	.	.	8F/	-ſub-	16g\LL	.
16D\JJ	.	.	.	.	.	16f\JJ	.
4C/	.	4.c\	-ſtan-	4G/	-ſtan-	4e\	.
!LO:TX:t=P:problem:kreska pseudotaktowa	!	!	!	!	!LO:MO:mod=-ti-	!	!
4F\,<	-lem	.	.	4A/	-ci-	4f\	-lem
!	!	!	!LO:MO:mod=-ti-	!	!	!	!
.	.	8c\	-ci-	.	.	.	.
=44-	=44-	=44-	=44-	=44-	=44-	=44-	=44-
!	!	!	!	!	!	!	!LO:MO:mod=con-
4.BB-/	con-	2d\	-a-	2.B-/	-a-	4.f\	Con-
8BB-/	-ſub-	.	.	.	.	8f\	-ſub-
!	!	!LO:SIC:v:t=custos B-	!	!	!	!	!
4.FF/	-ſtan-	2c\	-lem	.	.	4.f\	-ſtan-
.	.	.	.	4A/	-lem	.	.
!LO:TX:t=P:problem:kreska pseudotaktowa	!	!	!	!	!	!	!LO:MO:mod=-ti-
8FF/	-ti-	.	.	.	.	8f\	-ci-
*	*	*xywh-pl-kk--i-2--0287:1853,3655,5849,1217	*	*	*	*	*
!	!	!LO:LB:g=original	!	!	!	!	!
=45-	=45-	=45-	=45-	=45-	=45-	=45-	=45-
4GG/	-a-	(4B-y\	Pa-	4G/	Pa-	8d\L	-a-
.	.	.	.	.	.	8e\	.
!	!LO:MO:mod=-lem	!	!	!	!	!	!
4AA/	-le(m)	4A\)	.	2F/	.	8f\J	.
.	.	.	.	.	.	8c/	-lem
(4BB-/	Pa-	2G/	.	.	.	(4d/	Pa-
!LO:TX:t=P:problem:kreska pseudotaktowa	!	!	!	!	!	!	!
4C/)	.	.	.	4E/	.	4c/)	.
=46-	=46-	=46-	=46-	=46-	=46-	=46-	=46-
4FF/	-tri	1A,<	-tri	1F	-tri	1c,<	-tri
2FF/	per	.	.	.	.	.	.
!LO:TX:t=P:problem:kreska pseudotaktowa	!LO:MO:mod=quem	!	!	!	!	!	!
4AA/	que(m)	.	.	.	.	.	.
=47-	=47-	=47-	=47-	=47-	=47-	=47-	=47-
4.C/	om-	2G/	per	2r	.	2e\	per
8C/	-ni-	.	.	.	.	.	.
!	!	!	!LO:MO:mod=quem	!	!	!	!
4AA/	-a	2A/	que(m)	4r	.	4c\	.
8.D/	per	.	.	4d\	per	8.f\	quem
*	*	*	*	*	*	*	*ij
!LO:SIC:v:t=custos E	!	!	!	!	!	!	!
!LO:TX:t=P:problem:kreska pseudotaktowa	!	!	!	!	!	!	!
16D/	quem	.	.	.	.	16f\	per
*xywh-pl-kk--i-2--0388:8125,654,6236,1132	*	*	*	*	*	*	*
!LO:PB:g=original	!	!	!	!	!	!	!
=48-	=48-	=48-	=48-	=48-	=48-	=48-	=48-
!	!	!	!	!	!LO:MO:mod=quem	!	!
4.E\	om-	4.c\	om-	4G/	que(m)	4.g\	quem
*	*	*	*	*	*	*	*Xij
.	.	.	.	2c\	om-	.	.
8E\	-ni-	8c\	-ni-	.	.	8g\	om-
!LO:TX:t=P:problem:kreska pseudotaktowa	!	!	!	!	!	!	!
2F\	-a	2A\	-a	.	.	4f\	-ni-
.	.	.	.	8c\	-ni-	2f\	-a
.	.	.	.	8c\	-a	.	.
=49-	=49-	=49-	=49-	=49-	=49-	=49-	=49-
2BB-/	fac-	2G/	fac-	2d\	fac-	.	.
.	.	.	.	.	.	8e\L	fac-
.	.	.	.	.	.	8d\J	.
2C/	-ta	2G/	-ta	2c\	-ta	4.e\	.
.	.	.	.	.	.	8e\	-ta
=50-	=50-	=50-	=50-	=50-	=50-	=50-	=50-
!LO:TX:t=P:problem:kreska pseudotaktowa	!LO:MO:mod=sunt.	!	!	!	!	!	!LO:MO:mod=sunt.
1FF,<	ſunt,	1A,<	ſunt.	2c\,<	ſunt.	1f	ſunt
.	.	.	.	2c\	Qui	.	.
=51-	=51-	=51-	=51-	=51-	=51-	=51-	=51-
4FF/	Qui	2F/	Qui	8A\L	pro-	4r	.
.	.	.	.	8G\	.	.	.
!	!LO:MO:mod=pro-	!	!	!	!	!	!
4.F\	p(ro)-	.	.	8A\	.	4a\	Qui
.	.	.	.	8B-\J	.	.	.
.	.	2G/	pro-	2c\	.	4g\	.
!	!LO:MO:mod=-pter	!	!	!	!	!	!
8F\	-p(te)r	.	.	.	.	.	.
!LO:TX:t=P:problem:kreska pseudotaktowa	!	!	!	!	!	!	!
4E\	nos	.	.	.	.	8g\	pro-
!	!	!	!	!	!	!LO:SIC:v:t=custos f	!
.	.	.	.	.	.	8g\	-pter
*	*	*	*	*	*	*xywh-pl-kk--i-2--0084:8071,2095,6256,1003	*
!	!	!	!	!	!	!LO:LB:g=original	!
=52-	=52-	=52-	=52-	=52-	=52-	=52-	=52-
4.D/	ho-	2A/	-pter	4F/,<	-pter	8f\L	ho-
.	.	.	.	.	.	8g\J	.
.	.	.	.	4F/	qui	2a\	.
8C/	.	.	.	.	.	.	.
!	!	!	!	!	!LO:MO:mod=pro-	!	!
8BB-/L	.	2B-\	nos	4G/	p(ro)-	.	.
8AA/	.	.	.	.	.	.	.
!	!	!	!	!	!LO:MO:mod=-pter	!	!
8BB-/	.	.	.	8G/	-p(te)r	2g\	.
!LO:TX:t=P:problem:kreska pseudotaktowa	!	!	!	!LO:SIC:v:t=custos A	!	!	!
8GG/J	.	.	.	8G/	nos	.	.
*	*	*	*	*xywh-pl-kk--i-2--0188:8166,2161,5640,913	*	*	*
!	!	!	!	!LO:LB:g=original	!	!	!
=53-	=53-	=53-	=53-	=53-	=53-	=53-	=53-
2D/	.	(2A/	ho-	8A/L	ho-	.	.
.	.	.	.	8D/J	.	.	.
.	.	.	.	2d\	.	4f#X\	.
4.E-X\	.	4.G/)	.	.	.	4.g\	.
.	.	.	.	4c\	-mi-	.	.
!LO:TX:t=P:problem:kreska pseudotaktowa	!	!	!	!	!	!	!
8E-\	-mi-	8G/	-mi-	.	.	8g\	-mi-
=54-	=54-	=54-	=54-	=54-	=54-	=54-	=54-
!	!	!	!	!	!	!LO:MO:mod=!null:null	!
!	!	!	!	!	!	!LO:N:acc=-	!
4D/	-nes	1A,<	-nes	2d\	-nes	4fn\	-nes
4D/	et	.	.	.	.	4f\	et
!	!LO:MO:mod=pro-	!	!	!	!	!	!LO:MO:mod=pro-
4D/	p(ro)-	.	.	2r	.	4f\	p(ro)-
!LO:TX:t=P:problem:kreska pseudotaktowa	!LO:MO:mod=-pter	!	!	!	!	!	!LO:MO:mod=-pter
4AA/	-p(te)r	.	.	.	.	4c\	-p(te)r
=55-	=55-	=55-	=55-	=55-	=55-	=55-	=55-
2BB-/	no-	2F/	et	4r	.	8d\L	no-
.	.	.	.	.	.	8e\J	.
!	!	!	!	!	!	!	!LO:MO:null:mod=-stram
.	.	.	.	4d\	et	2f\	.
!	!	!	!LO:MO:mod=pro-	!	!LO:MO:mod=pro-	!	!
4GG/	-ſtram	4G/	p(ro)-	4B-\	p(ro)-	.	.
!LO:TX:t=P:problem:kreska pseudotaktowa	!	!	!LO:MO:mod=-pter	!	!LO:MO:mod=-pter	!	!LO:MO:mod=sa-
4C/	ſa-	4G/	-p(te)r	4c\	-p(te)r	8e\L	-ſtram
!	!	!	!	!	!	!	!LO:MO:mod=.
.	.	.	.	.	.	8d\J	ſa-
=56-	=56-	=56-	=56-	=56-	=56-	=56-	=56-
8AA/L	-lu-	2A/	no-	8c\L	no-	8c\L	-lu-
16BB-/L	.	.	.	8B-\	.	16d\L	.
16C/J	.	.	.	.	.	16e\J	.
8D/	.	.	.	8A\	.	8f\	.
8C/J	.	.	.	16B-\L	.	8e\J	.
.	.	.	.	16c\JJ	.	.	.
!	!	!	!LO:MO:mod=-stram	!	!	!	!
8BB-/L	.	4B-/	-ſtra(m)	2d\	.	8d\L	.
8AA/J	.	.	.	.	.	16e\L	.
.	.	.	.	.	.	16f\JJ	.
!LO:SIC:v:t=custos  AA	!	!	!	!	!	!	!
4GG/	.	4B-/	ſa-	.	.	2g\	.
*xywh-pl-kk--i-2--0388:8135,1528,5988,983	*	*	*	*	*	*	*
!LO:LB:g=original	!	!	!	!	!	!	!
=57-	=57-	=57-	=57-	=57-	=57-	=57-	=57-
4.AA/	.	(2A/	-lu-	4c\	-ſtram	.	.
.	.	.	.	4c\	ſa-	2f\	.
8BB-/	.	.	.	.	.	.	.
!LO:TX:t=P:problem:kreska pseudotaktowa	!	!LO:SIC:v:t=custos A	!	!	!	!	!
2C/	.	2G/)	.	2c\	-lu-	.	.
.	.	.	.	.	.	4e\	.
!	!	!LO:PB:g=original	!	!	!	!	!
=58-	=58-	=58-	=58-	=58-	=58-	=58-	=58-
*	*	*xywh-pl-kk--i-2--0287:8117,674,6423,940	*	*	*	*	*
!	!	!	!	!	!LO:MO:mod=-tem	!	!
2FF/	-tem	1A,<	-tem	4c\	-te(m)	2f\	-tem
.	.	.	.	4c\	deſ-	.	.
!LO:TX:t=P:problem:kreska pseudotaktowa	!	!	!	!	!	!	!
2F\	deſ-	.	.	8A\L	-cen-	2f\	de-
.	.	.	.	8B-\	.	.	.
.	.	.	.	8A\	.	.	.
.	.	.	.	8G\J	.	.	.
=59-	=59-	=59-	=59-	=59-	=59-	=59-	=59-
4.D/	-cen-	2A\	deſ-	8F/L	.	4.f\	-ſcen-
.	.	.	.	8E/	.	.	.
.	.	.	.	8F/	.	.	.
16C/LL	.	.	.	8G/J	.	16e\LL	.
16BB-/JJ	.	.	.	.	.	16d\JJ	.
!LO:TX:t=P:problem:kreska pseudotaktowa	!	!	!	!	!	!	!
2AA/	.	2c\	-cen-	2A/	.	8c\L	.
.	.	.	.	.	.	8d\	.
.	.	.	.	.	.	8e\	.
.	.	.	.	.	.	8f\J	.
=60-	=60-	=60-	=60-	=60-	=60-	=60-	=60-
!	!	!	!	!	!LO:MO:null:mod=-dit	!	!
4BB-/	-dit	4B-/	-dit	8G/	.	4d/	.
!	!	!	!	!	!LO:MO:mod=de	!	!
.	.	.	.	8D/	-dit	.	.
!	!	!	!	!	!LO:MO:mod=cae-	!	!
4D/	de	4A/	de	2F/	de	8d/	-dit
.	.	.	.	.	.	8d/	de
(4BB-/	cae-	2G/	cae-	.	.	4d/	cae-
!	!	!	!	!	!LO:MO:mod=.	!	!
4C/)	.	.	.	4E/	cae-	4c/	.
=61-	=61-	=61-	=61-	=61-	=61-	=61-	=61-
!	!	!	!	!	!	!LO:SIC:v:t=custos f	!
!LO:TX:t=P:problem:kreska pseudotaktowa	!	!LO:TX:t=P:problem:kreska pseudotaktowa	!	!LO:TX:t=P:problem:kreska pseudotaktowa	!	!LO:TX:t=P:problem:kreska pseudotaktowa	!
1FF;	-lis.	1A;	-lis.	1F;	-lis.	1c;<	-lis.
!	!	!	!	!	!	!LO:LB:g=original	!
!LO:MO:mod==62||	!LO:MO:mod==62||	!LO:MO:mod==62||	!LO:MO:mod==62||	!LO:MO:mod==62||	!LO:MO:mod==62||	!LO:MO:mod==62||	!LO:MO:mod==62||
=62-	=62-	=62-	=62-	=62-	=62-	=62-	=62-
!	!	!	!	!	!	!LO:MO:mod=*null:null	!
*	*	*	*	*	*	*M2/2	*
!	!	!	!	!	!	!LO:MO:mod=*null:null	!
*	*	*	*	*	*	*met(C|)	*
*	*	*	*	*xywh-pl-kk--i-2--0188:7987,2886,6117,953	*	*xywh-pl-kk--i-2--0084:7902,2900,6256,963	*
!	!LO:MO:mod=Et	!	!LO:MO:mod=Et	!	!LO:MO:mod=Et	!	!LO:MO:mod=Et
2F\	ET	2A\	ET	2c/	ET	2f\	ET
4B-\	in-	4.B-\	in-	4d/	in-	4f\	in-
!LO:TX:t=P:problem:kreska pseudotaktowa	!	!	!	!	!	!	!
4G\	-car-	.	.	4eny/	-car-	4g\	-car-
.	.	8B-\	-car-	.	.	.	.
=63-	=63-	=63-	=63-	=63-	=63-	=63-	=63-
4.F\	-na-	4c\	-na-	4.f\	-na-	4.a\	-na-
.	.	4c\	-tus	.	.	.	.
8F\	-tus	.	.	8f\	-tus	8a\	-tus
4F\	est	4c\	est	4f\	eſt	4a\	eſt
!LO:TX:t=P:problem:kreska pseudotaktowa	!	!	!	!	!	!	!
4D/	de	4c\	de	4f\	de	4a\	de
=64-	=64-	=64-	=64-	=64-	=64-	=64-	=64-
4A\	Spi-	4c\	Spi-	4e\	Spi-	4a\	Spi-
8A\	-ri-	8c\	-ri-	8e\	-ri-	8a\	-ri-
8Eny\	-tu	8c\	-tu	8e\	-tu	8g\	-tu
(4F\	San-	4.c\	San-	2d\	San-	(4a\	San-
4G\)	.	.	.	.	.	4g\)	.
!	!	!LO:MO:mod=!null:null	!	!	!	!	!
!	!	!LO:N:acc=#	!	!	!	!	!
.	.	8Bn\	.	.	.	.	.
=65-	=65-	=65-	=65-	=65-	=65-	=65-	=65-
!LO:SIC:v:t=custos F	!	!	!	!	!	!	!
!LO:TX:t=P:problem:kreska pseudotaktowa	!	!	!	!	!	!	!LO:MO:mod=-cto
1C	-cto	1c	-cto	1c,<	-cto	1g,<	-cto.
!LO:LB:g=original	!	!	!	!	!	!	!
=66-	=66-	=66-	=66-	=66-	=66-	=66-	=66-
*xywh-pl-kk--i-2--0388:8095,2213,6008,1112	*	*	*	*	*	*	*
!	!LO:MO:mod=ex	!	!LO:MO:mod=ex	!	!LO:MO:mod=ex	!	!LO:MO:mod=ex
4.F\	Ex	4.c\	Ex	4.A/	Ex	4.f\	Ex
8F\	Ma-	8c\	Ma-	8A/	Ma-	8f\	Ma-
4.F\	-ri-	4.c\	-ri-	4.A/	-ri-	4.f\	-ri-
!LO:TX:t=P:problem:kreska pseudotaktowa	!	!	!	!	!	!	!
8BB-/	-a	8d\	-a	8B-\	-a	8f\	-a
=67-	=67-	=67-	=67-	=67-	=67-	=67-	=67-
4.F\	Vir-	4.c\	Vir-	4.A/	Vir-	4.f\	Vir-
!	!	!LO:SIC:v:t=custos B-	!	!	!	!	!
8F\	-gi-	8c\	-gi-	8A/	-gi-	8f\	-gi-
*	*	*xywh-pl-kk--i-2--0287:8177,1397,6037,940	*	*	*	*	*
!	!	!LO:LB:g=original	!	!	!	!	!
4G\	-ne	4B-y\	-ne	4G/	-ne	4d\	-ne
!LO:TX:t=P:problem:kreska pseudotaktowa	!	!	!	!	!	!	!LO:MO:mod=et
4E-X\	et	4B-\	et	4G/	et	4e-X\	Et
=68-	=68-	=68-	=68-	=68-	=68-	=68-	=68-
!	!LO:MO:mod=ho-	!	!LO:MO:mod=ho-	!	!LO:MO:mod=ho-	!	!LO:MO:mod=ho-
8F\L	Ho-	4A/	Ho-	4F/	Ho-	8c/	Ho-
8E-X\	.	.	.	.	.	8c/	-mo
8D\J	.	4A/	-mo	4A/	-mo	2f\	fac-
8C/	-mo	.	.	.	.	.	.
4BB-/	fac-	4.G/	fac-	4d\	fac-	.	.
!	!	!	!	!	!LO:MO:mod=-tus	!	!LO:MO:mod=-tus
8.C/	.	.	.	4c\	-t(us)	4en\	-t(us)
!	!	!	!LO:MO:mod=-tus	!	!	!	!
.	.	8G/	-t(us)	.	.	.	.
!	!LO:MO:mod=-tus	!	!	!	!	!	!
16C/	-t(us)	.	.	.	.	.	.
=69-	=69-	=69-	=69-	=69-	=69-	=69-	=69-
!LO:TX:t=P:problem:kreska pseudotaktowa	!	!LO:TX:t=P:problem:kreska pseudotaktowa	!LO:MO:mod=est.	!LO:SIC:v:t=custos f	!	!	!
1FF;	est.	1A;	e(st).	1c;<	est.	1f;<	est.
!	!	!	!	!LO:LB:g=original	!	!LO:LB:g=original	!
=70-	=70-	=70-	=70-	=70-	=70-	=70-	=70-
*M3/1	*	*M3/1	*	*M3/1	*	*M3/1	*
*	*	*	*	*met(O|)	*	*met(O|)	*
*	*	*	*	*xywh-pl-kk--i-2--0188:8027,3640,6197,1201	*	*xywh-pl-kk--i-2--0084:7962,3675,6187,1042	*
!	!LO:MO:mod=Cru-	!	!LO:MO:mod=Cru-	!	!LO:MO:mod=Cru-	!	!LO:MO:mod=Cru-
0F	CRu-	0c	CRu-	0f	CRu-	0a	CRu-
!LO:TX:t=P:problem:kreska pseudotaktowa	!	!	!	!	!	!	!
1F	-ci-	1A	-ci-	1c	-ci-	1f	-ci-
=71-	=71-	=71-	=71-	=71-	=71-	=71-	=71-
0B-	-fi-	0B-	-fi-	0d	-fi-	0f	-fi-
!LO:TX:t=P:problem:kreska pseudotaktowa	!	!	!	!	!	!	!
1G	-xus	1B-	-xus	1e	-xus	1g	-xus
=72-	=72-	=72-	=72-	=72-	=72-	=72-	=72-
0F	e-	0A	e-	0f	e-	0c	e-
1C	-ti-	1G	-ti-	1e	-ti-	1c	-ti-
=73-	=73-	=73-	=73-	=73-	=73-	=73-	=73-
*	*	*	*	*col	*	*	*
!	!	!	!	!	!	!LO:MO:mod=!null:null	!
!	!	!	!	!	!	!LO:N:acc=#	!
0G	-am	0G	-am	0d	-am	0Bn	-am
!LO:SIC:v:t=custos F	!	!	!	!	!	!	!
!LO:TX:t=P:problem:kreska pseudotaktowa	!	!	!LO:MO:null:mod=pro	!	!	!	!
1Eny	pro	1G	.	0g	pro	1c	pro
!LO:LB:g=original	!	!	!	!	!	!	!
=74-	=74-	=74-	=74-	=74-	=74-	=74-	=74-
*	*	*col	*	*	*	*col	*
*xywh-pl-kk--i-2--0388:8155,3077,6008,1012	*	*	*	*	*	*	*
!	!	!	!LO:MO:null:mod=no-	!	!	!	!
2F\	no-	0A	.	.	.	1c	no-
2E\	.	.	.	.	.	.	.
2D/	.	.	.	0f	no-	0d	.
2C/	.	.	.	.	.	.	.
!LO:TX:t=P:problem:kreska pseudotaktowa	!	!	!	!	!	!	!
1BB-	.	0G	.	.	.	.	.
*	*	*	*	*	*	*Xcol	*
=75-	=75-	=75-	=75-	=75-	=75-	=75-	=75-
*lig	*	*	*	*	*	*	*
1C	.	.	.	1e	.	0c	.
!	!	!	!LO:MO:mod=.	!	!	!	!
1F	.	1A	pro	0d	.	.	.
*Xlig	*	*	*	*Xcol	*	*	*
!	!	!	!	!	!	!LO:MO:mod=!null:null	!
!	!	!	!LO:MO:mod=.	!	!	!LO:N:acc=#	!
1G	.	1G	no-	.	.	1Bn	.
*	*	*Xcol	*	*	*	*	*
=76-	=76-	=76-	=76-	=76-	=76-	=76-	=76-
*M2/2	*	*M2/2	*	*M2/2	*	*M2/2	*
*met(C|)	*	*met(C|)	*	*met(C|)	*	*met(C|)	*
*mmet(c|)	*	*mmet(c|)	*	*mmet(c|)	*	*mmet(c|)	*
!	!	!	!	!LO:MO:mod=*null:null	!	!	!
*	*	*	*	*2\left	*	*	*
!	!	!	!	!	!	!LO:MO:mod=!null:null	!
!	!	!	!	!	!	!LO:N:acc=#	!
!	!	!	!	!	!	!LO:SIC:s=2e	!
2C/	-bis	2G/	-bis	2c\	-bis	2en\	-bis
4r	.	4r	.	4r	.	4r	.
!LO:TX:t=P:problem:kreska pseudotaktowa	!	!LO:SIC:v:t=custos c	!	!	!	!	!
4F\	ſub	4c\	ſub	4A/	ſub	4f\	ſub
*	*	*xywh-pl-kk--i-2--0287:8207,2169,6096,1029	*	*	*	*	*
!	!	!LO:LB:g=original	!	!	!	!	!
=77-	=77-	=77-	=77-	=77-	=77-	=77-	=77-
4.F\	Pon-	4.c\	Pon-	4.A/	Pon-	4.f\	Pon-
8F\	-ti-	8c\	-ti-	8A/	-ti-	8f\	-ti-
4F\	-o	4c\	-o	4A/	-o	4f\	-o
!LO:TX:t=P:problem:kreska pseudotaktowa	!	!	!	!	!	!	!
4BB-/	Pi-	4d\	Pi-	4B-/	Pi-	4f\	Pi-
=78-	=78-	=78-	=78-	=78-	=78-	=78-	=78-
4.F\	-la-	4.c\	-la-	4.A/	-la-	4.f\	-la-
!	!	!	!	!LO:SIC:v:t=custos G	!	!	!
8F\	-to	8c\	-to	8A/	-to	8f\	-to
*	*	*	*	*xywh-pl-kk--i-2--0189:1874,550,5809,1031	*	*	*
!	!LO:MO:mod=pas-	!	!LO:MO:mod=pas-	!LO:LB:g=original	!LO:MO:mod=pas-	!	!LO:MO:mod=pas-
4G\	Paſ-	4.B-\	Paſ-	4.G/	Paſ-	4d\	Paſ-
!LO:TX:t=P:problem:kreska pseudotaktowa	!LO:MO:mod=-sus	!	!	!	!	!LO:SIC:v:t=custos c	!
4E-X\	-s(us)	.	.	.	.	4e-X\	-sus
!	!	!	!	!	!LO:MO:mod=-sus	!	!
.	.	8B-\	-sus	8G/	-s(us)	.	.
*	*	*	*	*	*	*xywh-pl-kk--i-2--0085:2011,510,5889,1039	*
!	!	!	!	!	!	!LO:PB:g=original	!
=79-	=79-	=79-	=79-	=79-	=79-	=79-	=79-
4F\	et	4.A/	et	4.F/	et	4c/	et
4D/	ſe-	.	.	.	.	4d\	ſe-
.	.	8A/	ſe-	8F/	ſe-	.	.
4BB-/	-pul-	4.G/	-pul-	4F/	-pul-	4d\	-pul-
!LO:TX:t=P:problem:kreska pseudotaktowa	!LO:MO:mod=-tus	!	!	!	!LO:MO:mod=-tus	!	!
4C/	-t(us)	.	.	4E/	-t(us)	4c/	-tus
!	!	!	!LO:MO:mod=-tus	!	!	!	!
.	.	8G/	-t(us)	.	.	.	.
=80-	=80-	=80-	=80-	=80-	=80-	=80-	=80-
!LO:TX:t=P:problem:kreska pseudotaktowa	!	!	!LO:MO:mod=est.	!	!LO:MO:mod=est.	!	!
1FF,<	eſt.	1A	e(st).	1F,<	e(st)	2c/,<	est.
.	.	.	.	.	.	4c/	Et
.	.	.	.	.	.	8d\	re-
.	.	.	.	.	.	8eny\	-ſur-
=81-	=81-	=81-	=81-	=81-	=81-	=81-	=81-
4FF/	Et	2F/	Et	4A\	Et	(4.f\	-re-
8GG/	re-	.	.	8B-\	re-	.	.
8AA/	-ſur-	.	.	8c\	-ſur-	8e\	.
4BB-/	-re-	4F/	re-	4d\	-re-	4d\	.
8AA/L	.	4G/	-ſur-	8c\L	.	4e\)	.
!LO:SIC:v:t=custos FF	!	!	!	!	!	!	!
!LO:TX:t=P:problem:kreska pseudotaktowa	!	!	!	!	!	!	!
8GG/J	.	.	.	8B-\J	.	.	.
!LO:LB:g=original	!	!	!	!	!	!	!
=82-	=82-	=82-	=82-	=82-	=82-	=82-	=82-
*xywh-pl-kk--i-2--0388:8185,3772,6236,1350	*	*	*	*	*	*	*
!	!	!	!	!LO:MO:mod=*null:null	!	!	!
*	*	*	*	*2\right	*	*	*
2FF/	.	2A/	-re-	2c\	-xit	2f\,<	-xit
!LO:TX:t=P:problem:kreska pseudotaktowa	!	!	!	!	!	!	!
2FF/	-xit	2A/	-xit	4.c\	ter-	4f\	ter-
.	.	.	.	.	.	8e\	-ti-
.	.	.	.	8c\	-ti-	8d\	-a
=83-	=83-	=83-	=83-	=83-	=83-	=83-	=83-
4.C/	ter-	2c\	ter-	2G/	-a	2e\	di-
8C/	-ti-	.	.	.	.	.	.
8D\L	-a	4B-\	-ti-	8F/L	di-	4d\	-e
8Eny\J	.	.	.	8G/	.	.	.
!LO:TX:t=P:problem:kreska pseudotaktowa	!	!	!	!	!	!	!
4F\	.	4A/	-a	8A/	.	8c\L	ſe-
.	.	.	.	8B-/J	.	8d\J	.
=84-	=84-	=84-	=84-	=84-	=84-	=84-	=84-
2C/	di-	2G/	di-	2c\	.	4e\	.
.	.	.	.	.	.	4f\	.
4C/	-e	4G/	-e	4c\	-e	2g\	-cun-
!LO:MO:mod=!null:null	!	!	!	!	!	!	!
!LO:N:acc=#	!	!	!	!	!	!	!
!LO:TX:t=P:problem:kreska pseudotaktowa	!	!	!	!	!	!	!
4BBn/	ſe-	4G/	ſe-	4d\	ſe-	.	.
=85-	=85-	=85-	=85-	=85-	=85-	=85-	=85-
2C/	-cun-	(2G/	-cun-	2c\	-cun-	4g\	.
.	.	.	.	.	.	4g\	.
!	!	!	!	!	!LO:MO:mod=-dum	!	!
4AA/	-dum	2A/)	.	4c\	-du(m)	4g\	.
!LO:TX:t=P:problem:kreska pseudotaktowa	!	!	!	!	!LO:MO:mod=Scrip-	!	!
4D/	ſe-	.	.	4d\	ſcrip-	8f#X\	-dum
!	!	!	!	!	!	!	!LO:MO:mod=Scrip-
.	.	.	.	.	.	8f#\	ſcrip-
=86-	=86-	=86-	=86-	=86-	=86-	=86-	=86-
8G\L	-cun-	2B-/	-dum	(4d\	-tu-	2g\	-tu-
8F\	.	.	.	.	.	.	.
8E-X\	.	.	.	4e-X\)	.	.	.
16D\L	.	.	.	.	.	.	.
16C\JJ	.	.	.	.	.	.	.
!LO:SIC:s=8BB-L	!	!	!LO:MO:mod=Scrip-	!	!	!	!
8BB-X/L	.	2B-/	ſcrip-	4d\	-ras	4g\	-ras
8AA/	.	.	.	.	.	.	.
!	!	!	!	!LO:SIC:v:t=custos d	!	!	!LO:MO:mod=Scrip-
8BB-/	.	.	.	4d\	ſe-	2g\	ſcrip-
!LO:TX:t=P:problem:kreska pseudotaktowa	!	!	!	!	!	!	!
8C/J	.	.	.	.	.	.	.
*	*	*	*	*xywh-pl-kk--i-2--0189:1761,1386,5841,1023	*	*	*
!	!	!	!	!LO:LB:g=original	!	!	!
=87-	=87-	=87-	=87-	=87-	=87-	=87-	=87-
4D/	.	(2A/	-tu-	4d\	-cun-	.	.
8AA/	-dum	.	.	8c\	-dum	2fny\	.
!	!LO:MO:mod=Scrip-	!	!	!	!LO:MO:mod=Scrip-	!	!
8AA/	ſcrip-	.	.	8c\	ſcrip-	.	.
(4BB-/	-tu-	2G/)	.	(4d\	-tu-	.	.
4C/)	.	.	.	4c\)	.	4e\	-tu-
=88-	=88-	=88-	=88-	=88-	=88-	=88-	=88-
!LO:TX:t=P:problem:kreska pseudotaktowa	!	!LO:SIC:v:t=custos F	!	!	!	!LO:SIC:v:t=custos c	!
1FF,<	-ras.	1A	-ras.	2c\,<	-ras.	1f	-ras.
.	.	.	.	4.F/	Et	.	.
.	.	.	.	8G/	as-	.	.
*	*	*xywh-pl-kk--i-2--0287:8127,2970,6067,979	*	*	*	*xywh-pl-kk--i-2--0085:2061,1349,5968,992	*
!	!	!LO:LB:g=original	!	!	!	!LO:LB:g=original	!
=89-	=89-	=89-	=89-	=89-	=89-	=89-	=89-
4F\	Et	4F/	Et	2A/	-cen-	4c\	Et
4D/	as-	4F/	as-	.	.	4d\	as-
4BB-/	-cen-	4G/	-cen-	4B-/	-dit	4e\	-cen-
8C/	-dit	8G/	-dit	4G/	in	8e\	-dit
!LO:TX:t=P:problem:kreska pseudotaktowa	!	!	!	!	!	!	!
8C/	in	8G/	in	.	.	8e\	in
=90-	=90-	=90-	=90-	=90-	=90-	=90-	=90-
!	!LO:MO:mod=cae-	!	!LO:MO:mod=cae-	!	!LO:MO:mod=cae-	!	!LO:MO:mod=cae-
2FF/	Cae-	2A/	Cae-	8F/L	ca(e)-	8f\L	ca(e)-
.	.	.	.	8G/	.	8e\	.
.	.	.	.	8A/	.	8f\	.
.	.	.	.	8B-/J	.	8g\J	.
!LO:SIC:v:t=custos F	!	!	!	!	!	!	!
!LO:TX:t=P:problem:kreska pseudotaktowa	!LO:MO:mod=-lum	!	!LO:MO:mod=-lum	!	!	!	!
2FF/	-lu(m)	2F/	-lu(m)	4c\	.	4a\	.
.	.	.	.	4c\	-lum	4a\	-lum
*xywh-pl-kk--i-2--0389:1560,584,6157,1144	*	*	*	*	*	*	*
!LO:PB:g=original	!	!	!	!	!	!	!
=91-	=91-	=91-	=91-	=91-	=91-	=91-	=91-
4F\	ſe-	4c\	ſe-	4A/	ſe-	4f\	ſe-
8F\	-det	8c\	-det	8A/	-det	8f\	-det
8F\	ad	8c\	ad	8A/	ad	8f\	ad
4D\	dex-	4d\	dex-	4A/	dex-	4f\	dex-
8D\	-te-	8d\	-te-	8A/	-te-	8f\	-te-
!	!LO:MO:mod=-ram	!	!	!	!LO:MO:mod=-ram	!	!LO:MO:mod=-ram
8D\	-ra(m)	8d\	-ram	8A/	-ra(m)	8f\	-ra(m)
=92-	=92-	=92-	=92-	=92-	=92-	=92-	=92-
!LO:TX:t=P:problem:mixed beam	!	!	!	!	!	!	!
8Eny\L	Pa-	(4c\	Pa-	2G/	Pa-	(4e\	Pa-
8F\	.	.	.	.	.	.	.
!	!	!LO:MO:mod=!null:null	!	!	!	!	!
!	!	!LO:N:acc=#	!	!	!	!	!
8G\	.	4Bn\)	.	.	.	4d\)	.
8GG/J	.	.	.	.	.	.	.
!	!	!	!	!	!LO:MO:mod=-tris.	!	!
2C/	-tris.	2c\	-tris.	2G/	-tris	4e\	-tris.
.	.	.	.	.	.	4e\	Et
=93-	=93-	=93-	=93-	=93-	=93-	=93-	=93-
1r	.	2A\	Et	1r	.	4.f\	i-
.	.	.	.	.	.	8f\	-te-
.	.	4.c\	i-	.	.	4e\	-rum
.	.	.	.	.	.	4e\	ven-
.	.	8c\	-te-	.	.	.	.
=94-	=94-	=94-	=94-	=94-	=94-	=94-	=94-
2D/	Et	2B-y\	-rum	2r	.	8d\L	-tu-
.	.	.	.	.	.	8e\J	.
.	.	.	.	.	.	4.f\	.
4.F\	i-	(2A/	ven-	4r	.	.	.
.	.	.	.	.	.	16e\LL	.
.	.	.	.	.	.	16d\JJ	.
.	.	.	.	4A/	Et	8c\L	.
8F\	-te-	.	.	.	.	8d\J	.
=95-	=95-	=95-	=95-	=95-	=95-	=95-	=95-
4E\	-rum	2G/	.	4.c\	i-	8e\L	.
.	.	.	.	.	.	8f\J	.
4C/	ven-	.	.	.	.	2g\	.
.	.	.	.	8c\	-te-	.	.
!	!	!	!	!	!LO:MO:mod=-rum	!	!
4.AA/	-tu-	2A/)	.	4c\	-ru(m)	.	.
!	!	!	!	!LO:SIC:v:t=custos c	!	!	!
.	.	.	.	4c\	ven-	2f\	.
!	!LO:MO:mod=-rus	!	!	!	!	!	!
8FF/	-r(us)	.	.	.	.	.	.
*	*	*	*	*xywh-pl-kk--i-2--0189:1845,2149,5757,1041	*	*	*
!	!	!	!	!LO:LB:g=original	!	!	!
=96-	=96-	=96-	=96-	=96-	=96-	=96-	=96-
4C/	est	4.G/	-tu-	4.c\	-tu-	.	.
!	!	!	!	!	!	!LO:SIC:v:t=custos d	!
4C/	cum	.	.	.	.	4e\	-rus
!	!	!	!LO:MO:mod=-rus	!	!LO:MO:mod=-rus	!	!
.	.	8G/	-r(us)	8c\	-r(us)	.	.
*	*	*	*	*	*	*xywh-pl-kk--i-2--0085:2046,2139,5859,937	*
!	!	!	!LO:MO:mod=est	!	!	!LO:LB:g=original	!
8D\L	glo-	2F/,<	e(st)	2A\	est	2d\	est
8C\	.	.	.	.	.	.	.
8D\	.	.	.	.	.	.	.
8E\J	.	.	.	.	.	.	.
=97-	=97-	=97-	=97-	=97-	=97-	=97-	=97-
4.F\	.	2A\	cum	2r	.	2c/	cum
8F\	-ri-	.	.	.	.	.	.
4E\	-a	4.c\	glo-	2G/	cum	4.e\	glo-
!	!LO:MO:mod=ju-	!	!	!	!	!	!
8.E\	iu-	.	.	.	.	.	.
!	!	!LO:SIC:v:t=custos B-	!	!	!	!	!
.	.	8c\	-ri-	.	.	8e\	-ri-
16F\	-di-	.	.	.	.	.	.
!	!	!LO:LB:g=original	!	!	!	!	!
=98-	=98-	=98-	=98-	=98-	=98-	=98-	=98-
*	*	*xywh-pl-kk--i-2--0287:8167,3782,5869,1059	*	*	*	*	*
!	!	!	!	!	!LO:MO:null:mod=glo-	!	!
8G\L	-ca-	(2B-\	-a	8B-\L	.	1d	-a
8D\J	.	.	.	8c\J	.	.	.
!	!	!	!	!	!LO:MO:mod=.	!	!
2G\	.	.	.	4.d\	glo-	.	.
.	.	2A\),<	.	.	.	.	.
.	.	.	.	8d\	-ri-	.	.
!LO:TX:t=P:problem:♯above	!	!	!	!	!	!	!
!LO:SIC:v:t=custos G	!	!	!	!	!	!	!
4F#X\	.	.	.	4A/	-a	.	.
*xywh-pl-kk--i-2--0389:1634,1422,6110,1134	*	*	*	*	*	*	*
!LO:LB:g=original	!	!	!	!	!	!	!
=99-	=99-	=99-	=99-	=99-	=99-	=99-	=99-
!	!	!	!LO:MO:mod=ju-	!	!LO:MO:null:mod=ju-	!	!LO:MO:mod=ju-
2G\	-re	2G/	iu-	8B-/L	.	2.d\	iu-
.	.	.	.	8A/J	.	.	.
!	!	!	!	!	!LO:MO:mod=.	!	!
.	.	.	.	4.G/	iu-	.	.
!	!LO:MO:mod=ju-	!	!	!	!	!	!
4.D/	iu-	2A/	-di-	.	.	.	.
.	.	.	.	8G/	-di-	.	.
!	!	!	!	!LO:MO:mod=([4F	!	!	!
.	.	.	.	(2F/	-ca-	4d\	-di-
8C/	-di-	.	.	.	.	.	.
=100-	=100-	=100-	=100-	=100-	=100-	=100-	=100-
!	!	!	!	!LO:MO:null:mod=4F]	!	!	!
4BB-/	-ca-	2G/	-ca-	.	.	4d\	-ca-
4C/	.	.	.	4E/)	.	2c/	.
2D/	.	2F/	-re	2F/	-re	.	.
!	!	!	!	!	!	!LO:N:acc=#	!
!	!	!	!	!	!	!LO:TX:t=P:problem:♯ below	!
.	.	.	.	.	.	4Bn/	.
=101-	=101-	=101-	=101-	=101-	=101-	=101-	=101-
!	!	!	!LO:MO:mod=vi-	!	!LO:MO:mod=vi-	!	!
4C/	-re	(2E/	Vi-	(2G/	Vi-	1c	-re
!	!LO:MO:mod=vi-	!	!	!	!	!	!
8C/L	Vi-	.	.	.	.	.	.
8BB-/J	.	.	.	.	.	.	.
8AA/L	.	2F#X/)	.	2A/)	.	.	.
8GG/J	.	.	.	.	.	.	.
4AA/	.	.	.	.	.	.	.
=102-	=102-	=102-	=102-	=102-	=102-	=102-	=102-
!	!	!	!LO:MO:mod=-vos	!	!	!	!LO:MO:mod=vi-
1GG,<	-vos	1G,<	-uos	1D	-vos	1B-y	Vi-
=103-	=103-	=103-	=103-	=103-	=103-	=103-	=103-
2Fny\	et	2A/	et	2F/	et	2c/	-vos
8D\L	mor-	8Fny/L	mor-	4.F/	mor-	4d/	et
8E\	.	8G/	.	.	.	.	.
8.F\J	.	8.A/J	.	.	.	8.c/	mor-
.	.	.	.	8F/	-tu-	.	.
16F\	-tu-	16B-/	-tu-	.	.	16c/	-tu-
=104-	=104-	=104-	=104-	=104-	=104-	=104-	=104-
1C,<	-os	1G,<	-os	1E,<	-os.	1c	-os
=105-	=105-	=105-	=105-	=105-	=105-	=105-	=105-
!	!	!	!LO:MO:mod=cu-	!	!LO:MO:mod=cu-	!	!
2C/	cu-	2E/	Cu-	2c\	Cu-	1r	.
!	!LO:MO:mod=-jus	!	!LO:MO:mod=-jus	!	!LO:MO:mod=-jus	!	!
4D/	-i(us)	2F/	-ius	2A\	-ius	.	.
2F\	re-	.	.	.	.	.	.
=106-	=106-	=106-	=106-	=106-	=106-	=106-	=106-
.	.	2G/	re-	2c\	re-	2r	.
8E\L	.	.	.	.	.	.	.
8D\J	.	.	.	.	.	.	.
!	!	!	!	!	!	!	!LO:MO:mod=cu-
2E\	.	2G/	-gni	4c\	-gni	2c/	Cu-
!	!	!	!	!LO:SIC:v:t=custos F	!	!	!
.	.	.	.	4c\	non	.	.
!	!	!	!	!LO:LB:g=original	!	!	!
=107-	=107-	=107-	=107-	=107-	=107-	=107-	=107-
*	*	*	*	*xywh-pl-kk--i-2--0189:1789,2958,5980,874	*	*	*
!	!LO:MO:mod=-gni	!	!LO:MO:mod=non	!	!	!	!LO:MO:mod=-jus
4D/	-gni,	2A/	no(n)	8F/L	e-	4d\	-ius
.	.	.	.	8E/J	.	.	.
4D/	non	.	.	2D/	.	4f\	re-
4BB-/	e-	2B-/	e-	.	.	4d\	-gni
8GG/	-rit	.	.	8d\	-rit	4g\	non
*	*ij	*	*	*	*	*	*
!	!	!	!	!	!LO:MO:mod=non	!	!
8GG/	non	.	.	8d\	no(n)	.	.
=108-	=108-	=108-	=108-	=108-	=108-	=108-	=108-
4C/	e-	2A/	-rit	4c\	e-	8e\	e-
.	.	.	.	.	.	8e\	-rit
4BB-/	-rit	.	.	4d\	-rit	(2f\	fi-
*	*Xij	*	*	*	*	*	*
2C/	fi-	2G/	fi-	2c\	fi-	.	.
!	!	!	!	!	!	!LO:SIC:v:t=custos f	!
.	.	.	.	.	.	4e\)	.
!	!	!	!	!	!	!LO:LB:g=original	!
=109-	=109-	=109-	=109-	=109-	=109-	=109-	=109-
*	*	*	*	*	*	*xywh-pl-kk--i-2--0085:2061,2883,5821,961	*
!LO:SIC:v:t=custos F	!	!LO:TX:t=P:problem:kreska pseudotaktowa	!	!LO:TX:t=P:problem:kreska pseudotaktowa	!LO:MO:mod=-nis.	!LO:TX:t=P:problem:kreska pseudotaktowa	!
1FF	-nis.	1A	-nis.	1c	-nis	1f	-nis.
*xywh-pl-kk--i-2--0389:1671,2185,5971,1153	*	*	*	*	*	*	*
!LO:LB:g=original	!	!	!	!	!	!	!
=110-	=110-	=110-	=110-	=110-	=110-	=110-	=110-
4r	.	2F/	Et	2c\	Et	2a\	Et
2F\	Et	.	.	.	.	.	.
!	!	!LO:SIC:v:t=custos A	!	!	!	!	!
.	.	2G/	in	2c\	in	2g\	in
4E\	in	.	.	.	.	.	.
*	*	*xywh-pl-kk--i-2--0288:1700,692,5988,991	*	*	*	*	*
!	!	!LO:PB:g=original	!	!	!	!	!
=111-	=111-	=111-	=111-	=111-	=111-	=111-	=111-
4.F\	Spi-	4.A/	Spi-	4.c\	Spi-	4.f\	Spi-
8F\	-ri-	8A/	-ri-	8c\	-ri-	8f\	-ri-
!	!LO:MO:mod=-tum	!	!	!	!LO:MO:mod=-tum	!	!
2F\	-tu(m)	2F/	-tum	2c\	-tu(m)	2a\	-tum
=112-	=112-	=112-	=112-	=112-	=112-	=112-	=112-
4.F\	San-	4.c\	San-	4.A\	San-	4.f\	San-
!	!LO:MO:mod=-ctum	!	!LO:MO:mod=-ctum	!	!LO:MO:mod=-ctum	!	!LO:MO:mod=-ctum
8F\	-ctu(m)	8c\	-ctu(m)	8A\	-ctu(m)	8f\	-ctu(m)
!	!LO:MO:mod=Do-	!	!LO:MO:mod=Do-	!	!LO:MO:mod=Do-	!	!LO:MO:mod=Do-
4.BB-/	D(o-	4.d\	D(o-	4.B-\	D(o-	4.f\	U-
!	!LO:MO:mod=-mi-	!	!LO:MO:mod=-mi-	!	!LO:MO:mod=-mi-	!	!LO:MO:null:mod=-mi-
8BB-/	-mi)-	8d\	-mi)-	8B-\	-mi)-	8f\	.
=113-	=113-	=113-	=113-	=113-	=113-	=113-	=113-
!	!	!	!	!	!	!	!LO:MO:mod=-num
1F	-num	1c	-num	1A,<	-num	1f	-nam
=114-	=114-	=114-	=114-	=114-	=114-	=114-	=114-
4F\	et	4.c\	et	4A/	et	4f\	et
!	!LO:MO:mod=vi-	!	!	!	!LO:MO:mod=vi-	!	!LO:MO:mod=vi-
4F\	Vi-	.	.	4A/	Vi-	4f\	Vi-
.	.	8c\	vi-	.	.	.	.
!	!LO:MO:mod=-vi-	!	!LO:MO:mod=-vi-	!	!LO:MO:mod=-vi-	!	!LO:MO:mod=vi-
4G\	-ui-	4.B-\	-ui-	4G/	-ui-	4.d\	-ui-
4D/	-fi-	.	.	4F/	-fi-	.	.
.	.	8B-\	-fi-	.	.	8d\	-fi-
=115-	=115-	=115-	=115-	=115-	=115-	=115-	=115-
2F\	-can-	2A/	-can-	2F/	-can-	2c\	-can-
!	!LO:MO:mod=-tem	!	!LO:MO:mod=-tem	!	!LO:MO:mod=-tem	!	!LO:MO:mod=-tem
2C/,<	-te(m)	2G/	-tem,	2E/	-te(m)	2c\	-te(m)
=116-	=116-	=116-	=116-	=116-	=116-	=116-	=116-
!	!LO:MO:mod=qui	!	!	!	!	!	!
4.C/	q(ui)	4.c\	qui	4G/	qui	4.e\	qui
.	.	.	.	4G/	ex	.	.
8C/	ex	8c\	ex	.	.	8e\	ex
4D/	Pa-	4B-\	Pa-	4B-\	Pa-	4f\	Pa-
4E\	-tre	4B-\	-tre	4G/	-tre	4g\	-tre
=117-	=117-	=117-	=117-	=117-	=117-	=117-	=117-
!	!LO:MO:mod=fi-	!	!LO:MO:mod=fi-	!	!LO:MO:mod=fi-	!	!
4.F\	Fi-	4.A/	Fi-	4.F/	Fi-	4.c/	fi-
!	!	!	!	!LO:SIC:v:t=custos E	!	!	!
8F\	-li-	8A/	-li-	8F/	-li-	8c/	-li-
*	*	*	*	*xywh-pl-kk--i-2--0189:1817,3665,5906,1041	*	*	*
!	!	!	!	!LO:LB:g=original	!	!	!
4C/	-o-	4G/	-o-	4E/	-o-	4c/	-o-
!	!LO:MO:mod=-que	!	!	!	!	!LO:MO:mod=[4d	!
2GG/	-q(ue)	2B-\	-que	4.G/	-que	2d/	-que
=118-	=118-	=118-	=118-	=118-	=118-	=118-	=118-
!	!	!	!	!	!	!LO:MO:null:mod=4d]	!
!	!	!	!	!	!LO:MO:mod=.	!	!
.	.	.	.	8E/J	p(ro)-	.	.
!	!LO:MO:mod=pro-	!	!	!	!LO:MO:mod=pro-	!	!
4AA/	p(ro)-	4A/	pro-	2F/	-ce-	4c/	pro-
(4BB-/	-ce-	2G/	-ce-	.	.	(4d/	-ce-
!	!	!	!	!	!LO:MO:null:mod=-ce-	!	!
4C/)	.	.	.	4E/	.	4c/)	.
=119-	=119-	=119-	=119-	=119-	=119-	=119-	=119-
!LO:SIC:v:t=custos F	!	!	!	!	!	!LO:SIC:v:t=custos c	!LO:MO:mod=-dit.
1FF	-dit.	1A	-dit.	1F	-dit.	1c	-dit,
!LO:LB:g=original	!	!	!	!	!	!LO:LB:g=original	!
=120-	=120-	=120-	=120-	=120-	=120-	=120-	=120-
*M3/1	*	*M3/1	*	*M3/1	*	*M3/1	*
!LO:MO:mod=*null:null	!	!	!	!LO:MO:mod=*null:null	!	!LO:MO:mod=*null:null	!
*met(O|)	*	*	*	*met(O|)	*	*met(O|)	*
*	*	*	*	*	*	*xywh-pl-kk--i-2--0085:2007,3643,5898,1038	*
*xywh-pl-kk--i-2--0389:1569,2957,6008,1144	*	*	*	*	*	*	*
0F	Qui	0F	Qui	0A	Qui	0c	Qui
!	!	!LO:SIC:v:t=custos A	!	!	!LO:MO:null:mod=cum	!	!
1E	cum	1G	cum	1c	.	1e	cum
*	*	*xywh-pl-kk--i-2--0288:1755,1433,5802,973	*	*	*	*	*
!	!	!LO:LB:g=original	!	!	!	!	!
=121-	=121-	=121-	=121-	=121-	=121-	=121-	=121-
!	!	!	!	!	!LO:MO:mod=Pa-	!	!
1F	Pa-	1A	Pa-	1.F	cum	1c	Pa-
1F	-tre	1F	-tre	.	.	1f	-tre
!	!	!	!	!	!LO:MO:mod=-tre	!	!
.	.	.	.	2c\	Pa-	.	.
!	!	!	!	!	!LO:MO:mod=et	!	!
1A	et	1c	et	1c	-tre	1e	et
=122-	=122-	=122-	=122-	=122-	=122-	=122-	=122-
*lig	*	*	*	*	*	*lig	*
!	!	!	!	!	!LO:MO:mod=Fi-	!	!
1F	Fi-	0c	Fi-	2f\	et	1a	Fi-
.	.	.	.	2eny\	.	.	.
!	!	!	!	!	!LO:MO:mod=.	!	!
1.G	.	.	.	2d\	Fi-	1.g	.
.	.	.	.	2c\	.	.	.
!	!	!LO:MO:mod=!null:null	!	!	!	!	!
!	!	!LO:N:acc=#	!	!	!	!	!
.	.	1Bn	-li-	2.d\	.	.	.
*Xlig	*	*	*	*	*	*Xlig	*
2G\	-li-	.	.	.	.	2g\	-li-
.	.	.	.	4d\	-li-	.	.
=123-	=123-	=123-	=123-	=123-	=123-	=123-	=123-
0.C	-o	0.c	-o	0.e	-o	0.g	-o
=124-	=124-	=124-	=124-	=124-	=124-	=124-	=124-
1.F	ſi-	1.A	ſi-	1.c	ſi-	1.f	ſi-
2G\	-mul	2B-y\	-mul	2B-\	-mul	2d/	-mul
1A	a-	1c	a-	2A\	a-	1c	a-
!	!	!	!	!	!LO:MO:mod=.	!	!
.	.	.	.	2F/	-do-	.	.
=125-	=125-	=125-	=125-	=125-	=125-	=125-	=125-
*col	*	*	*	*	*	*	*
!	!	!	!	!	!LO:MO:mod=-do-	!	!
1F	-do-	1c	-do-	2f\	-ra-	1A	-do-
.	.	.	.	2e\	.	.	.
*	*	*lig	*	*	*	*lig	*
!	!	!	!	!	!LO:MO:null:mod=-ra-	!	!
0G	-ra-	1c	-ra-	2d\	.	1G	-ra-
.	.	.	.	2c\	.	.	.
!	!	!LO:TX:t=P:problem:♯ below	!	!	!	!	!
!	!	!LO:MO:mod=!null:null	!	!	!	!	!
!	!	!LO:N:acc=#	!	!	!	!	!
.	.	1Bn	.	1d	.	1g	.
*Xcol	*	*Xlig	*	*	*	*Xlig	*
=126-	=126-	=126-	=126-	=126-	=126-	=126-	=126-
!	!	!	!	!	!	!	!LO:MO:mod=-tur
0C	-tur	0c	-tur	0e	-tur	0g,<	-t(u)r
!	!	!	!	!LO:SIC:v:t=custos A	!	!	!
1F	et	1c	et	1A	et	1f	et
*	*	*	*	*xywh-pl-kk--i-2--0189:8161,614,6269,948	*	*	*
!	!	!	!	!LO:PB:g=original	!	!	!
=127-	=127-	=127-	=127-	=127-	=127-	=127-	=127-
0F	con-	0c	con-	0A	con-	0f	con-
1BB-	-glo-	1d	-glo-	1B-	-glo-	1f	-glo-
=128-	=128-	=128-	=128-	=128-	=128-	=128-	=128-
0FF	-ri-	0c	-ri-	0A	-ri-	0f	-ri-
1GG	-fi-	1B-y	-fi-	1G	-fi-	1d	-fi-
=129-	=129-	=129-	=129-	=129-	=129-	=129-	=129-
*lig	*	*col	*	*	*	*lig	*
1AA	-ca-	1A	-ca-	0F	-ca-	1c	-ca-
1BB-	.	0G	.	.	.	1d	.
*Xlig	*	*Xcol	*	*	*	*Xlig	*
1C	.	.	.	1E	.	1c	.
=130-	=130-	=130-	=130-	=130-	=130-	=130-	=130-
!LO:SIC:v:t=custos D	!	!	!	!	!	!LO:SIC:v:t=custos d	!
0.FF	-tur	0.A	-tur	0.F	-tur	0.c	-tur
*	*	*	*	*	*	*xywh-pl-kk--i-2--0085:8064,560,6334,995	*
*xywh-pl-kk--i-2--0389:1615,3812,6027,1134	*	*	*	*	*	*	*
!LO:LB:g=original	!	!	!	!	!	!LO:PB:g=original	!
=131-	=131-	=131-	=131-	=131-	=131-	=131-	=131-
0D	qui	0F	qui	0A	qui	0d	qui
1C	lo-	1G	lo-	1c	lo-	1e	lo-
=132-	=132-	=132-	=132-	=132-	=132-	=132-	=132-
1.FF	-cu-	1.A	-cu-	1.c	-cu-	1.f	-cu-
!	!LO:MO:mod=-tus	!	!LO:MO:mod=-tus	!	!LO:MO:mod=-tus	!	!
2FF/	-t(us)	2A/	-t(us)	2c\	-t(us)	2f\	-tus
!	!	!LO:SIC:v:t=custos B-	!	!	!	!	!
1C	est	1G	est	1c	est	1e	est
*	*	*xywh-pl-kk--i-2--0288:1801,2193,5802,1019	*	*	*	*	*
!	!	!LO:LB:g=original	!	!	!	!	!
=133-	=133-	=133-	=133-	=133-	=133-	=133-	=133-
*	*	*col	*	*	*	*	*
2GG/	per	0B-	per	0.d	per	0g	per
2AA/	.	.	.	.	.	.	.
2BB-/	.	.	.	.	.	.	.
2C/	.	.	.	.	.	.	.
1D	.	0A	Pro-	.	.	1f	Pro-
=134-	=134-	=134-	=134-	=134-	=134-	=134-	=134-
1AA	Pro-	.	.	1c	Pro-	(0f	-phe-
*lig	*	*	*	*lig	*	*	*
1BB-	-phe-	0G	-phe-	1d	-phe-	.	.
1C	.	.	.	1c	.	1e)	.
*Xlig	*	*Xcol	*	*Xlig	*	*	*
=135-	=135-	=135-	=135-	=135-	=135-	=135-	=135-
!	!LO:MO:mod=-tas.	!	!	!	!LO:MO:mod=-tas.	!	!LO:MO:mod=-tas.
0.FF	-tas	0.F	-tas.	0.c	-tas	0f	-tas,
.	.	.	.	.	.	1c	Et
=136-	=136-	=136-	=136-	=136-	=136-	=136-	=136-
!	!	!	!	!	!	!	!LO:MO:mod=u-
1F	Et	1c	Et	0.r	.	0A	U-
!	!LO:MO:mod=u-	!	!LO:MO:mod=u-	!	!	!	!
1F	V-	1c	U-	.	.	.	.
1F	-nam	1A	-nam	.	.	1F	-nam
=137-	=137-	=137-	=137-	=137-	=137-	=137-	=137-
!	!LO:MO:mod=san-	!	!LO:MO:mod=san-	!	!	!	!LO:MO:mod=san-
0F	San-	0F	San-	1c	Et	0A	San-
!	!	!	!	!	!LO:MO:mod=u-	!	!
.	.	.	.	1c	V-	.	.
!	!LO:MO:mod=-ctam	!	!	!	!	!	!LO:MO:mod=-ctam
1F	-cta(m)	1A	-ctam	1A	-nam	1F	-cta(m)
=138-	=138-	=138-	=138-	=138-	=138-	=138-	=138-
*	*	*	*	*	*	*col	*
!	!LO:MO:mod=san-	!	!LO:MO:mod=ca-	!	!LO:MO:mod=san-	!	!LO:MO:mod=ca-
1F	San-	1c	Ca-	1A	San-	1f	Ca-
*	*	*	*	*	*	*Xcol	*
!	!LO:MO:mod=-ctam	!	!	!	!LO:MO:mod=-ctam	!	!
1D	-cta(m)	1.d	-tho-	2B-\	-cta(m)	1.f	-tho-
!	!	!	!	!	!LO:MO:mod=ca-	!	!
.	.	.	.	2A\	Ca-	.	.
!	!LO:MO:mod=ca-	!	!	!	!	!	!
1BB-	Ca-	.	.	2.B-\	-tho-	.	.
.	.	2d\	-li-	.	.	2f\	-li-
!	!	!	!	!LO:SIC:v:t=custos A	!	!	!
.	.	.	.	4B-\	-li-	.	.
*	*	*	*	*xywh-pl-kk--i-2--0189:8123,1368,6222,958	*	*	*
!	!	!	!	!LO:LB:g=original	!	!	!
=139-	=139-	=139-	=139-	=139-	=139-	=139-	=139-
1.F	-tho-	0.c	-cam	0.A	-cam	0.f	-cam
2F\	-li-	.	.	.	.	.	.
!	!LO:MO:mod=-cam	!	!	!	!	!	!
1F,<	-ca(m)	.	.	.	.	.	.
=140-	=140-	=140-	=140-	=140-	=140-	=140-	=140-
1FF	et	1c	et	1f	et	1a	et
!	!LO:MO:mod=a-	!	!LO:MO:mod=a-	!	!LO:MO:mod=a-	!	!LO:MO:mod=a-
1FF	A-	1c	A-	1f	A-	1a	A-
!LO:SIC:v:t=custos D	!	!	!	!	!	!	!
1GG	-po-	1B-	-po-	1d	-po-	1g	-po-
*xywh-pl-kk--i-2--0389:8117,687,6334,995	*	*	*	*	*	*	*
!LO:LB:g=original	!	!	!	!	!	!	!
=141-	=141-	=141-	=141-	=141-	=141-	=141-	=141-
1.D	-ſto-	1.A	-sto-	1.d	-sto-	1.f#X	-sto-
2D/	-li-	2A\	-li-	2d\	-li-	2g\	-li-
!	!	!	!	!	!	!LO:SIC:v:t=custos g	!
1AA	-cam	1c	-cam	1e	-cam	1a	-cam
*	*	*	*	*	*	*xywh-pl-kk--i-2--0085:8074,1341,6017,1060	*
!	!	!	!	!	!	!LO:LB:g=original	!
=142-	=142-	=142-	=142-	=142-	=142-	=142-	=142-
1BB-	Ec-	1B-	Ec-	1d	Ec-	1g	Ec-
!	!	!	!LO:MO:mod=-cle-	!	!	!	!
1.D	-cle-	1.A	-cl(e-	1.d	-cle-	1.g	-cle-
!	!	!	!LO:MO:mod=-si-	!	!	!LO:TX:t=P:problem:♯ below	!
2D/	-ſi-	2A\	-si)-	2d\	-si-	2f#X\	-si-
=143-	=143-	=143-	=143-	=143-	=143-	=143-	=143-
!	!LO:MO:mod=-am.	!	!LO:MO:mod=-am.	!	!LO:MO:mod=-am.	!	!
0GG,<	-am	0G,<	-am	0d	-am	0g,<	-am.
!	!	!LO:SIC:v:t=custos A	!	!	!	!	!
1GG	Con-	1G	Con-	1d	Con-	1g	Con-
*	*	*xywh-pl-kk--i-2--0288:1829,3008,5904,1001	*	*	*	*	*
!	!	!LO:LB:g=original	!	!	!	!	!
=144-	=144-	=144-	=144-	=144-	=144-	=144-	=144-
1.D	-fi-	1.A	-fi-	1.d	-fi-	1.f#	-fi-
2D/	-te-	2A\	-te-	2d\	-te-	2f#\	-te-
2C/	-or	2c\	-or	2e\	-or	2g\	-or
*	*ij	*	*ij	*	*	*	*ij
!	!	!	!	!	!LO:MO:mod=con-	!	!
2C/	Con-	2c\	Con-	2c\	Con-	2g\	Con-
=145-	=145-	=145-	=145-	=145-	=145-	=145-	=145-
1.FF	-fi-	1.A	-fi-	1.c	-fi-	1.fny	-fi-
2FF/	-te-	2A\	-te-	2c\	-te-	2f\	-te-
1FF	-or	1F	-or	1c	-or	1a	-or
*	*Xij	*	*Xij	*	*	*	*Xij
=146-	=146-	=146-	=146-	=146-	=146-	=146-	=146-
!	!LO:MO:mod=u-	!	!LO:MO:mod=u-	!	!LO:MO:mod=u-	!	!LO:MO:mod=u-
2FF/	V-	0A	V-	0c	V-	0f	V-
2GG/	.	.	.	.	.	.	.
2AA/	.	.	.	.	.	.	.
2BB-/	.	.	.	.	.	.	.
2C/	.	1G	-num	1c	-num	1e	-num
4BB-/	.	.	.	.	.	.	.
4AA/	.	.	.	.	.	.	.
=147-	=147-	=147-	=147-	=147-	=147-	=147-	=147-
!	!	!	!LO:MO:mod=u-	!	!LO:MO:mod=u-	!	!LO:MO:mod=u-
1GG	.	1B-	V-	1d	V-	1g	V-
!	!LO:MO:null:mod=-num	!	!	!	!	!	!
1AA	.	1A	-num	1c	-num	1f	-num
!	!LO:MO:mod=bap-	!	!	!	!LO:MO:mod=bap-	!	!LO:MO:mod=bap-
1AA	-num	1A	bap-	1c	Bap-	1f	Bap-
=148-	=148-	=148-	=148-	=148-	=148-	=148-	=148-
*col	*	*	*	*col	*	*	*
!	!LO:MO:mod=-ti-	!	!	!	!LO:MO:mod=-ti-	!	!LO:MO:mod=-ti-
1BB-	bap-	0.G	-ti-	1d	-tiſ-	0f	-tiſ-
!	!LO:MO:mod=.	!	!	!	!	!	!
0C	-ti-	.	.	0c	.	.	.
.	.	.	.	.	.	1e	.
*Xcol	*	*	*	*Xcol	*	*	*
=149-	=149-	=149-	=149-	=149-	=149-	=149-	=149-
!LO:SIC:v:t=custos F	!	!	!	!LO:SIC:v:t=custos A	!LO:MO:mod=-sma	!	!LO:MO:mod=-sma
0.FF	-ſma	0.A	-sma	0.c	-ma	0.f	-ma
!	!	!	!	!LO:LB:g=original	!	!	!
=150-	=150-	=150-	=150-	=150-	=150-	=150-	=150-
*M2/2	*	*M2/2	*	*M2/2	*	*M2/2	*
*met(C|)	*	*met(C|)	*	*met(C|)	*	*met(C|)	*
*mmet(c|)	*	*mmet(c|)	*	*mmet(c|)	*	*mmet(c|)	*
*xywh-pl-kk--i-2--0389:8163,1516,5952,1004	*	*	*	*xywh-pl-kk--i-2--0189:8179,2140,6017,976	*	*	*
!LO:LB:g=original	!	!	!	!	!	!	!
4.F\	in	4.c\	in	4.A/	in	4.f\	in
8F\	re-	8c\	re-	8A/	re-	8f\	re-
4.E\	-miſ-	4.c\	-miſ-	4.G/	-miſ-	4.g\	-miſ-
8E\	-si-	8c\	-si-	8G/	-si-	8g\	-si-
=151-	=151-	=151-	=151-	=151-	=151-	=151-	=151-
2F\	-o-	2c\	-o-	2A/	-o-	2f\	-o-
!	!	!	!	!	!	!	!LO:MO:mod=-nem
4C/	-nem	2c\	-nem	4G/	-nem	4e\	-ne(m)
8.F\	pec-	.	.	8F/L	pec-	8a\L	pec-
!	!	!	!	!	!	!LO:SIC:v:t=custos f	!
.	.	.	.	8G/J	.	8g\J	.
16E\	-ca-	.	.	.	.	.	.
*	*	*	*	*	*	*xywh-pl-kk--i-2--0085:8166,2178,6017,985	*
!	!	!	!	!	!	!LO:LB:g=original	!
=152-	=152-	=152-	=152-	=152-	=152-	=152-	=152-
8D\L	-to-	2d\	pec-	2.A/	.	2f\	-ca-
8E\	.	.	.	.	.	.	.
8F\	.	.	.	.	.	.	.
8G\J	.	.	.	.	.	.	.
4A\	.	2c\	-ca-	.	.	2e\	.
4E\	.	.	.	4G/	-ca-	.	.
=153-	=153-	=153-	=153-	=153-	=153-	=153-	=153-
8F\L	.	(2A\	-to-	1F	-to-	(2c\	-to-
8G\	.	.	.	.	.	.	.
8F\	.	.	.	.	.	.	.
8E\J	.	.	.	.	.	.	.
4D\	.	2B-\)	.	.	.	2d\)	.
4G\	.	.	.	.	.	.	.
=154-	=154-	=154-	=154-	=154-	=154-	=154-	=154-
!	!LO:MO:mod=-rum.	!LO:SIC:v:t=custos F	!	!	!	!	!LO:MO:mod=-rum.
1C,<	-rum	1c	-rum.	1E	-rum	4G/	-ru(m)
!	!	!	!	!	!	!	!LO:MO:mod=Et
.	.	.	.	.	.	4.G/	et
.	.	.	.	.	.	8G/	ex-
!	!	!	!	!	!	!LO:MO:mod=([4c	!LO:MO:mod=-spec-
.	.	.	.	.	.	(2c/	-pec-
*	*	*xywh-pl-kk--i-2--0288:1810,3778,5830,1038	*	*	*	*	*
!	!	!LO:LB:g=original	!	!	!	!	!
=155-	=155-	=155-	=155-	=155-	=155-	=155-	=155-
!	!	!	!	!	!	!LO:MO:null:mod=4c]	!
4.D/	Et	4F/	Et	1r	.	.	.
!	!	!	!	!	!	!LO:MO:mod=!null:null	!
!	!	!	!	!	!	!LO:N:acc=#	!
!	!	!	!	!	!	!LO:TX:t=P:problem:♯ below	!
.	.	4F/	ex-	.	.	4Bn/)	.
8D/	ex-	.	.	.	.	.	.
!	!LO:MO:mod=-spec-	!	!LO:MO:mod=-spec-	!	!	!	!
4.E\	-pec-	4.G/	-pec-	.	.	2c/	-to
8E\	-to	8G/	-to	.	.	.	.
=156-	=156-	=156-	=156-	=156-	=156-	=156-	=156-
4.F\	re-	4.A/	re-	4.c\	re-	8.c/	re-
.	.	.	.	.	.	16B-y/	-ſur-
.	.	.	.	.	.	4.A/	-re-
8F\	-ſur-	8A/	-ſur-	8c\	-ſur-	.	.
4.D/	-re-	4.F/	-re-	4.d\	-re-	.	.
.	.	.	.	.	.	8A/	-cti-
.	.	.	.	.	.	4d/	-o-
8D/	-cti-	8F/	-cti-	8d\	-cti-	.	.
=157-	=157-	=157-	=157-	=157-	=157-	=157-	=157-
4.C/	-o-	4.c\	-o-	4.e\	-o-	2G/	-nem
8C/	-nem	8c\	-nem	8e\	-nem	.	.
4.BB-/	mor-	4.d\	mor-	4.f\	mor-	2B-/	.
!LO:SIC:v:t=custos C	!	!	!	!	!	!	!
8BB-/	-tu-	8d\	-tu-	8f\	-tu-	.	.
*xywh-pl-kk--i-2--0389:8117,2195,6036,1004	*	*	*	*	*	*	*
!LO:LB:g=original	!	!	!	!	!	!	!
=158-	=158-	=158-	=158-	=158-	=158-	=158-	=158-
8C/L	-o-	2.c\	-o-	(2e-X\	-o-	4G/	mor-
8BB-/	.	.	.	.	.	.	.
8AA-X/	.	.	.	.	.	2A-X/	-tu-
8GG/J	.	.	.	.	.	.	.
4FF/	.	.	.	2d\)	.	.	.
!	!	!LO:MO:mod=!null:null	!	!	!	!	!
!	!	!LO:N:acc=#	!	!	!	!	!
4GG/	.	4Bn\	.	.	.	4G/	-o-
=159-	=159-	=159-	=159-	=159-	=159-	=159-	=159-
!	!	!	!	!LO:MO:mod=!null:null	!	!	!
!	!LO:MO:mod=-rum.	!	!LO:MO:mod=-rum.	!LO:N:acc=#	!LO:MO:mod=-rum.	!	!LO:MO:mod=-rum.
1C,<	-rum	1c,<	-ru(m).	2en\	-rum	4G/,<	-r(um)
.	.	.	.	.	.	4g\	Et
!	!	!	!	!	!	!	!LO:MO:mod=vi-
.	.	.	.	2c\	Et	4e\	Vi-
!	!	!	!	!	!	!	!LO:MO:mod=-tam
.	.	.	.	.	.	8e\	-ta(m)
!	!	!	!	!	!	!	!LO:MO:mod=ven-
.	.	.	.	.	.	8e\	Ven-
=160-	=160-	=160-	=160-	=160-	=160-	=160-	=160-
!	!	!	!	!	!LO:MO:mod=vi-	!	!
2F\	Et	2c\	Et	4A\	Vi-	1f	-tu-
.	.	.	.	8A\	-tam	.	.
!	!	!	!	!LO:SIC:v:t=custos B-	!LO:MO:mod=ven-	!	!
.	.	.	.	8A\	Ven-	.	.
*	*	*	*	*xywh-pl-kk--i-2--0189:8216,2921,6529,976	*	*	*
!	!LO:MO:mod=vi-	!	!LO:MO:mod=vi-	!	!	!	!
4D\	Vi-	2d\	Vi-	(2B-\	-tu-	.	.
8D\	-tam	.	.	.	.	.	.
!	!LO:MO:mod=ven-	!	!	!	!	!	!
8D\	Ven-	.	.	.	.	.	.
!	!	!	!	!LO:LB:g=original	!	!	!
=161-	=161-	=161-	=161-	=161-	=161-	=161-	=161-
4F\	-tu-	4.c\	-tam	2A/)	.	4f\	-ri
!	!	!	!	!	!	!	!LO:MO:mod=ven-
4C/,<	-ri	.	.	.	.	4e-X\	Ven-
!	!	!	!LO:MO:mod=ven-	!	!	!	!
.	.	8c\	Ven-	.	.	.	.
!	!LO:MO:mod=sae-	!LO:SIC:s=4.B-	!	!	!	!	!
4E-X\	ſa(e)-	4.B-X\	-tu-	2G/	-ri	4e-\	-tu-
!	!	!	!	!	!	!LO:SIC:v:t=custos d	!
8BB-/L	.	.	.	.	.	4d\	-ri
8C/J	.	8B-\	-ri	.	.	.	.
!	!	!	!	!	!	!LO:LB:g=original	!
=162-	=162-	=162-	=162-	=162-	=162-	=162-	=162-
*	*	*	*	*	*	*xywh-pl-kk--i-2--0085:8138,2931,4194,985	*
!	!	!	!LO:MO:mod=sae-	!	!LO:MO:mod=sae-	!	!LO:MO:mod=sae-
8D/L	.	4.A/	Sae-	4.F/	Sae-	(4d\	Sae-
8C/	.	.	.	.	.	.	.
8AAny/J	.	.	.	.	.	8.c\)	.
8BB-/	-cu-	8A/	-cu-	8F/	-cu-	.	.
.	.	.	.	.	.	16c\	-cu-
!	!LO:MO:mod=-li.	!	!LO:MO:mod=-li.	!	!LO:MO:mod=-li.	!	!LO:MO:mod=-li.
2C/	-li	2G/,<	-li	2E/	-li	2c/	-li
=163-	=163-	=163-	=163-	=163-	=163-	=163-	=163-
2AA/	A-	1c	A-	4r	.	2r	.
.	.	.	.	8c\L	A-	.	.
.	.	.	.	8B-\J	.	.	.
2FF/	-men	.	.	8A/L	.	[2a\	A-
.	.	.	.	8G/J	.	.	.
.	.	.	.	4.F/	.	.	.
=164-	=164-	=164-	=164-	=164-	=164-	=164-	=164-
!	!LO:MO:mod=a-	!	!	!	!	!	!
8F\L	A-	2A\	.	.	.	8a]\	.
8Eny\	.	.	.	8G/J	.	8g\	.
8D\	.	.	.	4A/	.	8f\	.
8C\J	.	.	.	.	.	8eny\J	.
8BB-/L	.	1B-\	.	2d\	.	8d\L	.
8AA/	.	.	.	.	.	8c\	.
8GG/	.	.	.	.	.	8B-\	.
8AA/J	.	.	.	.	.	8c\J	.
=165-	=165-	=165-	=165-	=165-	=165-	=165-	=165-
8BB-/L	.	.	.	4d\	-men	8d\L	.
8AA/	.	.	.	.	.	8c\	.
!	!	!	!	!LO:SIC:s=(2d	!LO:MO:mod=a-	!	!
8BB-/	.	.	.	((2d\	A-	8d\	.
8C/J	.	.	.	.	.	8e\J	.
4D/	.	2A/	.	.	.	4f\	-men
!	!	!	!	!LO:MO:mod=[4c	!	!	!LO:MO:mod=a-
8AA/L	.	.	.	2c\)	.	4f\	A-
8BB-/J	.	.	.	.	.	.	.
=166-	=166-	=166-	=166-	=166-	=166-	=166-	=166-
!	!	!	!	!LO:MO:null:mod=4c])	!	!	!
(4C/	.	1G	.	.	.	8e\L	.
.	.	.	.	.	.	8c\J	.
4BB-/)	.	.	.	4d\	.	2f\	.
2C/	.	.	.	2c\	.	.	.
.	.	.	.	.	.	4e\	.
=167-	=167-	=167-	=167-	=167-	=167-	=167-	=167-
!LO:MO:mod=!LO&colon;N&colon;vis=0	!	!LO:MO:mod=!LO&colon;N&colon;vis=0	!	!LO:MO:mod=!LO&colon;N&colon;vis=0	!	!LO:MO:mod=!LO&colon;N&colon;vis=0	!
!null	!	!null	!	!null	!	!null	!
!LO:SIC:s=1FF;	!LO:MO:mod=-men.	!LO:SIC:s=1A;	!LO:MO:mod=-men.	!LO:SIC:s=1c;	!LO:MO:mod=-men.	!LO:SIC:s=1f;	!LO:MO:mod=-men.
1FF;l	-men	1A;l	-men	1cl	-men	1fl	-men
==	==	==	==	==	==	==	==
*-	*-	*-	*-	*-	*-	*-	*-
!!!system-decoration: [(*)]
!!!RDF**kern: > = above
!!!RDF**kern: < = below
!!!RDF**kern: l = terminal long
!!!RDF**kern: i = editorial accidental
!!!filter-modern: shed -e "s/TX(.*):t=P:/tx$1:t=P:/LG" | sic -sq | modori -m | autostem -r | tie -s | humtr -p | shed -e "s/-//B" | shed -e "s/^custos:/Xcustos:/I" | shed -k -e "s/[<>]//g"
!!!ENC: Arkadiusz Malec
!!!END: 2022-05-05
!!!ENC: Andrzej Borzym
!!!END: 2022-05-11
!!!ENC-modern: Andrzej Kubiczek
!!!END-modern: 2022-07-07
!!!YEC: Copyright 2022 Narodowy Instytut Fryderyka Chopina (https://polishscores.org)
!!!YEM: License CC-BY-4.0 (https://creativecommons.org/licenses/by/4.0)
!!!IIIF: https://repozytorium.nifc.pl/islandora/object/pl-kk%3A750/datastream/IIIF/view#page=81
!!!ENC-iiif: Marta Opryszak
!!!END-iiif: 2022-08-26
